luts/golden-hour.cube
TITLE "Golden Hour"
LUT_3D_SIZE 5
DOMAIN_MIN 0.0 0.0 0.0
DOMAIN_MAX 1.0 1.0 1.0
0.000000 0.000000 0.000000
0.245346 0.000000 0.000000
0.574968 0.000000 0.000000
0.904856 0.000000 0.000000
1.000000 0.000000 0.000000
0.000000 0.227649 0.000000
0.236810 0.223407 0.000000
0.567260 0.219292 0.000000
0.897975 0.215303 0.000000
1.000000 0.211440 0.000000
0.000000 0.523283 0.000000
0.230854 0.519435 0.000000
0.562131 0.515713 0.000000
0.893673 0.512118 0.000000
1.000000 0.508648 0.000000
0.000000 0.820145 0.000000
0.227479 0.816690 0.000000
0.559582 0.813362 0.000000
0.891951 0.810160 0.000000
1.000000 0.807085 0.000000
0.000000 1.000000 0.000000
0.226682 1.000000 0.000000
0.559613 1.000000 0.000000
0.892809 1.000000 0.000000
1.000000 1.000000 0.000000
0.000000 0.000000 0.252978
0.244481 0.000000 0.243420
0.574177 0.000000 0.234034
0.904139 0.000000 0.224821
1.000000 0.000000 0.215780
0.000000 0.226458 0.223732
0.236175 0.222251 0.214712
0.566698 0.218171 0.205865
0.897487 0.214217 0.197190
1.000000 0.210389 0.188687
0.000000 0.522201 0.196165
0.230449 0.518388 0.187683
0.561800 0.514701 0.179374
0.893415 0.511141 0.171237
1.000000 0.507707 0.163272
0.000000 0.819172 0.170277
0.227303 0.815753 0.162333
0.559480 0.812460 0.154562
0.891923 0.809293 0.146963
1.000000 0.806252 0.139537
0.000000 1.000000 0.146067
0.226737 1.000000 0.138661
0.559741 1.000000 0.131428
0.893011 1.000000 0.124367
1.000000 1.000000 0.117479
0.000000 0.000000 0.522465
0.243636 0.000000 0.512954
0.573406 0.000000 0.503617
0.903442 0.000000 0.494451
1.000000 0.000000 0.485459
0.000000 0.225276 0.493369
0.235560 0.221105 0.484396
0.566157 0.217059 0.475597
0.897020 0.213140 0.466970
1.000000 0.209347 0.458515
0.000000 0.521129 0.465951
0.230064 0.517351 0.457517
0.561488 0.513699 0.449256
0.893178 0.510174 0.441167
1.000000 0.506775 0.433250
0.000000 0.818209 0.440212
0.227148 0.814825 0.432316
0.559399 0.811567 0.424593
0.891915 0.808436 0.417042
1.000000 0.805430 0.409664
0.000000 1.000000 0.416152
0.226811 1.000000 0.408794
0.559890 1.000000 0.401609
0.893233 1.000000 0.394596
1.000000 1.000000 0.387756
0.000000 0.000000 0.791965
0.242812 0.000000 0.782502
0.572656 0.000000 0.773213
0.902765 0.000000 0.764095
1.000000 0.000000 0.755151
0.000000 0.224104 0.763018
0.234966 0.219968 0.754094
0.565637 0.215958 0.745342
0.896573 0.212074 0.736763
1.000000 0.208316 0.728357
0.000000 0.520066 0.735750
0.229700 0.516324 0.727364
0.561198 0.512707 0.719151
0.892961 0.509217 0.711110
1.000000 0.505853 0.703241
0.000000 0.817256 0.710161
0.227013 0.813907 0.702313
0.559338 0.810684 0.694638
0.891928 0.807588 0.687135
1.000000 0.804617 0.679804
0.000000 1.000000 0.686250
0.226906 1.000000 0.678940
0.560058 1.000000 0.671803
0.893475 1.000000 0.664838
1.000000 1.000000 0.658046
0.000000 0.000000 1.000000
0.242009 0.000000 1.000000
0.571926 0.000000 1.000000
0.902109 0.000000 1.000000
1.000000 0.000000 1.000000
0.000000 0.222942 1.000000
0.234392 0.218841 1.000000
0.565137 0.214866 1.000000
0.896146 0.211017 1.000000
1.000000 0.207294 0.998211
0.000000 0.519014 1.000000
0.229356 0.515306 0.997225
0.560927 0.511725 0.989059
0.892764 0.508269 0.981066
1.000000 0.504940 0.973245
0.000000 0.816313 0.980123
0.226899 0.812999 0.972323
0.559298 0.809811 0.964695
0.891961 0.806750 0.957240
1.000000 0.803814 0.949958
0.000000 1.000000 0.956362
0.227022 1.000000 0.949100
0.560248 1.000000 0.942010
0.893738 1.000000 0.935094
1.000000 1.000000 0.928349
