luts/golden-hour.cube
TITLE "Golden Hour"
LUT_3D_SIZE 33
DOMAIN_MIN 0.0 0.0 0.0
DOMAIN_MAX 1.0 1.0 1.0
0.000000 0.000000 0.000000
0.000000 0.000000 0.000000
0.000000 0.000000 0.000000
0.039466 0.000000 0.000000
0.080634 0.000000 0.000000
0.121805 0.000000 0.000000
0.162981 0.000000 0.000000
0.204161 0.000000 0.000000
0.245346 0.000000 0.000000
0.286534 0.000000 0.000000
0.327726 0.000000 0.000000
0.368923 0.000000 0.000000
0.410124 0.000000 0.000000
0.451329 0.000000 0.000000
0.492538 0.000000 0.000000
0.533751 0.000000 0.000000
0.574968 0.000000 0.000000
0.616190 0.000000 0.000000
0.657416 0.000000 0.000000
0.698645 0.000000 0.000000
0.739879 0.000000 0.000000
0.781117 0.000000 0.000000
0.822360 0.000000 0.000000
0.863606 0.000000 0.000000
0.904856 0.000000 0.000000
0.946111 0.000000 0.000000
0.987370 0.000000 0.000000
1.000000 0.000000 0.000000
1.000000 0.000000 0.000000
1.000000 0.000000 0.000000
1.000000 0.000000 0.000000
1.000000 0.000000 0.000000
1.000000 0.000000 0.000000
0.000000 0.000000 0.000000
0.000000 0.000000 0.000000
0.000000 0.000000 0.000000
0.038193 0.000000 0.000000
0.079374 0.000000 0.000000
0.120559 0.000000 0.000000
0.161748 0.000000 0.000000
0.202940 0.000000 0.000000
0.244138 0.000000 0.000000
0.285339 0.000000 0.000000
0.326544 0.000000 0.000000
0.367754 0.000000 0.000000
0.408968 0.000000 0.000000
0.450185 0.000000 0.000000
0.491407 0.000000 0.000000
0.532634 0.000000 0.000000
0.573864 0.000000 0.000000
0.615098 0.000000 0.000000
0.656337 0.000000 0.000000
0.697579 0.000000 0.000000
0.738826 0.000000 0.000000
0.780077 0.000000 0.000000
0.821332 0.000000 0.000000
0.862592 0.000000 0.000000
0.903855 0.000000 0.000000
0.945123 0.000000 0.000000
0.986394 0.000000 0.000000
1.000000 0.000000 0.000000
1.000000 0.000000 0.000000
1.000000 0.000000 0.000000
1.000000 0.000000 0.000000
1.000000 0.000000 0.000000
1.000000 0.000000 0.000000
0.000000 0.006729 0.000000
0.000000 0.006155 0.000000
0.000000 0.005583 0.000000
0.036961 0.005013 0.000000
0.078155 0.004445 0.000000
0.119352 0.003879 0.000000
0.160554 0.003315 0.000000
0.201760 0.002753 0.000000
0.242970 0.002193 0.000000
0.284184 0.001634 0.000000
0.325402 0.001078 0.000000
0.366625 0.000524 0.000000
0.407852 0.000000 0.000000
0.449082 0.000000 0.000000
0.490317 0.000000 0.000000
0.531556 0.000000 0.000000
0.572799 0.000000 0.000000
0.614047 0.000000 0.000000
0.655298 0.000000 0.000000
0.696554 0.000000 0.000000
0.737814 0.000000 0.000000
0.779078 0.000000 0.000000
0.820346 0.000000 0.000000
0.861618 0.000000 0.000000
0.902894 0.000000 0.000000
0.944175 0.000000 0.000000
0.985459 0.000000 0.000000
1.000000 0.000000 0.000000
1.000000 0.000000 0.000000
1.000000 0.000000 0.000000
1.000000 0.000000 0.000000
1.000000 0.000000 0.000000
1.000000 0.000000 0.000000
0.000000 0.043501 0.000000
0.000000 0.042933 0.000000
0.000000 0.042368 0.000000
0.035769 0.041804 0.000000
0.076975 0.041242 0.000000
0.118186 0.040682 0.000000
0.159401 0.040124 0.000000
0.200620 0.039568 0.000000
0.241843 0.039014 0.000000
0.283070 0.038462 0.000000
0.324301 0.037911 0.000000
0.365536 0.037363 0.000000
0.406776 0.036817 0.000000
0.448020 0.036273 0.000000
0.489267 0.035731 0.000000
0.530519 0.035191 0.000000
0.571775 0.034652 0.000000
0.613036 0.034116 0.000000
0.654300 0.033582 0.000000
0.695569 0.033049 0.000000
0.736841 0.032519 0.000000
0.778118 0.031990 0.000000
0.819399 0.031464 0.000000
0.860684 0.030939 0.000000
0.901973 0.030417 0.000000
0.943267 0.029896 0.000000
0.984564 0.029378 0.000000
1.000000 0.028861 0.000000
1.000000 0.028347 0.000000
1.000000 0.027834 0.000000
1.000000 0.027323 0.000000
1.000000 0.026815 0.000000
1.000000 0.026308 0.000000
0.000000 0.080292 0.000000
0.000000 0.079731 0.000000
0.000000 0.079171 0.000000
0.034617 0.078613 0.000000
0.075837 0.078057 0.000000
0.117060 0.077504 0.000000
0.158288 0.076952 0.000000
0.199520 0.076402 0.000000
0.240755 0.075854 0.000000
0.281995 0.075308 0.000000
0.323240 0.074764 0.000000
0.364488 0.074222 0.000000
0.405740 0.073682 0.000000
0.446997 0.073144 0.000000
0.488258 0.072608 0.000000
0.529523 0.072074 0.000000
0.570792 0.071542 0.000000
0.612065 0.071012 0.000000
0.653342 0.070483 0.000000
0.694624 0.069957 0.000000
0.735909 0.069433 0.000000
0.777199 0.068911 0.000000
0.818493 0.068390 0.000000
0.859791 0.067872 0.000000
0.901093 0.067356 0.000000
0.942399 0.066841 0.000000
0.983710 0.066329 0.000000
1.000000 0.065819 0.000000
1.000000 0.065310 0.000000
1.000000 0.064804 0.000000
1.000000 0.064299 0.000000
1.000000 0.063796 0.000000
1.000000 0.063296 0.000000
0.000000 0.117103 0.000000
0.000000 0.116547 0.000000
0.000000 0.115994 0.000000
0.033506 0.115442 0.000000
0.074738 0.114892 0.000000
0.115975 0.114345 0.000000
0.157215 0.113799 0.000000
0.198460 0.113255 0.000000
0.239709 0.112714 0.000000
0.280962 0.112174 0.000000
0.322219 0.111636 0.000000
0.363480 0.111100 0.000000
0.404745 0.110566 0.000000
0.446015 0.110034 0.000000
0.487289 0.109504 0.000000
0.528566 0.108977 0.000000
0.569848 0.108451 0.000000
0.611134 0.107927 0.000000
0.652425 0.107404 0.000000
0.693719 0.106884 0.000000
0.735018 0.106366 0.000000
0.776320 0.105850 0.000000
0.817627 0.105336 0.000000
0.858938 0.104824 0.000000
0.900253 0.104314 0.000000
0.941572 0.103805 0.000000
0.982896 0.103299 0.000000
1.000000 0.102795 0.000000
1.000000 0.102293 0.000000
1.000000 0.101792 0.000000
1.000000 0.101294 0.000000
1.000000 0.100797 0.000000
1.000000 0.100303 0.000000
0.000000 0.153932 0.000000
0.000000 0.153383 0.000000
0.000000 0.152835 0.000000
0.032435 0.152290 0.000000
0.073680 0.151747 0.000000
0.114929 0.151205 0.000000
0.156183 0.150665 0.000000
0.197440 0.150128 0.000000
0.238702 0.149592 0.000000
0.279968 0.149059 0.000000
0.321238 0.148527 0.000000
0.362512 0.147997 0.000000
0.403791 0.147470 0.000000
0.445073 0.146944 0.000000
0.486360 0.146420 0.000000
0.527650 0.145898 0.000000
0.568945 0.145378 0.000000
0.610244 0.144861 0.000000
0.651547 0.144345 0.000000
0.692855 0.143831 0.000000
0.734166 0.143319 0.000000
0.775482 0.142809 0.000000
0.816802 0.142301 0.000000
0.858125 0.141795 0.000000
0.899453 0.141291 0.000000
0.940786 0.140789 0.000000
0.982122 0.140289 0.000000
1.000000 0.139791 0.000000
1.000000 0.139294 0.000000
1.000000 0.138800 0.000000
1.000000 0.138308 0.000000
1.000000 0.137818 0.000000
1.000000 0.137329 0.000000
0.000000 0.190781 0.000000
0.000000 0.190238 0.000000
0.000000 0.189696 0.000000
0.031404 0.189157 0.000000
0.072662 0.188620 0.000000
0.113924 0.188084 0.000000
0.155191 0.187551 0.000000
0.196461 0.187020 0.000000
0.237736 0.186490 0.000000
0.279015 0.185963 0.000000
0.320298 0.185437 0.000000
0.361585 0.184914 0.000000
0.402876 0.184392 0.000000
0.444171 0.183873 0.000000
0.485471 0.183355 0.000000
0.526775 0.182839 0.000000
0.568082 0.182326 0.000000
0.609394 0.181814 0.000000
0.650710 0.181304 0.000000
0.692031 0.180796 0.000000
0.733355 0.180291 0.000000
0.774684 0.179787 0.000000
0.816016 0.179285 0.000000
0.857353 0.178785 0.000000
0.898694 0.178287 0.000000
0.940039 0.177791 0.000000
0.981388 0.177297 0.000000
1.000000 0.176805 0.000000
1.000000 0.176315 0.000000
1.000000 0.175827 0.000000
1.000000 0.175341 0.000000
1.000000 0.174857 0.000000
1.000000 0.174375 0.000000
0.000000 0.227649 0.000000
0.000000 0.227112 0.000000
0.000000 0.226577 0.000000
0.030414 0.226044 0.000000
0.071685 0.225512 0.000000
0.112960 0.224983 0.000000
0.154239 0.224456 0.000000
0.195523 0.223931 0.000000
0.236810 0.223407 0.000000
0.278102 0.222886 0.000000
0.319398 0.222367 0.000000
0.360698 0.221849 0.000000
0.402002 0.221334 0.000000
0.443310 0.220820 0.000000
0.484623 0.220309 0.000000
0.525939 0.219799 0.000000
0.567260 0.219292 0.000000
0.608585 0.218786 0.000000
0.649914 0.218283 0.000000
0.691247 0.217781 0.000000
0.732584 0.217282 0.000000
0.773926 0.216784 0.000000
0.815271 0.216288 0.000000
0.856621 0.215794 0.000000
0.897975 0.215303 0.000000
0.939333 0.214813 0.000000
0.980695 0.214325 0.000000
1.000000 0.213839 0.000000
1.000000 0.213355 0.000000
1.000000 0.212873 0.000000
1.000000 0.212394 0.000000
1.000000 0.211916 0.000000
1.000000 0.211440 0.000000
0.000000 0.264536 0.000000
0.000000 0.264005 0.000000
0.000000 0.263476 0.000000
0.029463 0.262949 0.000000
0.070747 0.262424 0.000000
0.112036 0.261901 0.000000
0.153328 0.261380 0.000000
0.194624 0.260861 0.000000
0.235925 0.260344 0.000000
0.277229 0.259828 0.000000
0.318538 0.259315 0.000000
0.359851 0.258804 0.000000
0.401168 0.258295 0.000000
0.442489 0.257787 0.000000
0.483815 0.257282 0.000000
0.525144 0.256779 0.000000
0.566478 0.256277 0.000000
0.607816 0.255778 0.000000
0.649158 0.255281 0.000000
0.690504 0.254785 0.000000
0.731854 0.254292 0.000000
0.773208 0.253800 0.000000
0.814567 0.253311 0.000000
0.855929 0.252823 0.000000
0.897296 0.252337 0.000000
0.938667 0.251854 0.000000
0.980042 0.251372 0.000000
1.000000 0.250892 0.000000
1.000000 0.250415 0.000000
1.000000 0.249939 0.000000
1.000000 0.249465 0.000000
1.000000 0.248993 0.000000
1.000000 0.248524 0.000000
0.000000 0.301442 0.000000
0.000000 0.300917 0.000000
0.000000 0.300395 0.000000
0.028554 0.299874 0.000000
0.069851 0.299355 0.000000
0.111152 0.298838 0.000000
0.152457 0.298323 0.000000
0.193766 0.297810 0.000000
0.235079 0.297299 0.000000
0.276397 0.296790 0.000000
0.317719 0.296283 0.000000
0.359045 0.295778 0.000000
0.400375 0.295275 0.000000
0.441709 0.294774 0.000000
0.483047 0.294274 0.000000
0.524389 0.293777 0.000000
0.565736 0.293282 0.000000
0.607087 0.292789 0.000000
0.648441 0.292298 0.000000
0.689800 0.291808 0.000000
0.731164 0.291321 0.000000
0.772531 0.290836 0.000000
0.813902 0.290352 0.000000
0.855278 0.289871 0.000000
0.896658 0.289391 0.000000
0.938041 0.288914 0.000000
0.979429 0.288438 0.000000
1.000000 0.287965 0.000000
1.000000 0.287493 0.000000
1.000000 0.287024 0.000000
1.000000 0.286556 0.000000
1.000000 0.286090 0.000000
1.000000 0.285627 0.000000
0.000000 0.338368 0.000000
0.000000 0.337849 0.000000
0.000000 0.337332 0.000000
0.027684 0.336818 0.000000
0.068994 0.336305 0.000000
0.110308 0.335794 0.000000
0.151626 0.335285 0.000000
0.192948 0.334779 0.000000
0.234274 0.334274 0.000000
0.275605 0.333771 0.000000
0.316940 0.333270 0.000000
0.358278 0.332771 0.000000
0.399621 0.332274 0.000000
0.440968 0.331779 0.000000
0.482320 0.331286 0.000000
0.523675 0.330795 0.000000
0.565034 0.330306 0.000000
0.606398 0.329819 0.000000
0.647766 0.329334 0.000000
0.689138 0.328851 0.000000
0.730514 0.328369 0.000000
0.771894 0.327890 0.000000
0.813278 0.327413 0.000000
0.854667 0.326938 0.000000
0.896059 0.326464 0.000000
0.937456 0.325993 0.000000
0.978857 0.325524 0.000000
1.000000 0.325056 0.000000
1.000000 0.324591 0.000000
1.000000 0.324127 0.000000
1.000000 0.323666 0.000000
1.000000 0.323206 0.000000
1.000000 0.322749 0.000000
0.000000 0.375312 0.000000
0.000000 0.374800 0.000000
0.000000 0.374289 0.000000
0.026855 0.373781 0.000000
0.068178 0.373274 0.000000
0.109504 0.372770 0.000000
0.150835 0.372267 0.000000
0.192171 0.371766 0.000000
0.233510 0.371268 0.000000
0.274853 0.370771 0.000000
0.316201 0.370276 0.000000
0.357553 0.369783 0.000000
0.398908 0.369293 0.000000
0.440268 0.368804 0.000000
0.481632 0.368317 0.000000
0.523001 0.367832 0.000000
0.564373 0.367349 0.000000
0.605750 0.366868 0.000000
0.647130 0.366389 0.000000
0.688515 0.365912 0.000000
0.729904 0.365437 0.000000
0.771297 0.364964 0.000000
0.812695 0.364493 0.000000
0.854096 0.364024 0.000000
0.895502 0.363557 0.000000
0.936911 0.363091 0.000000
0.978325 0.362628 0.000000
1.000000 0.362167 0.000000
1.000000 0.361708 0.000000
1.000000 0.361250 0.000000
1.000000 0.360795 0.000000
1.000000 0.360342 0.000000
1.000000 0.359890 0.000000
0.000000 0.412276 0.000000
0.000000 0.411770 0.000000
0.000000 0.411265 0.000000
0.026066 0.410763 0.000000
0.067402 0.410263 0.000000
0.108741 0.409764 0.000000
0.150085 0.409268 0.000000
0.191433 0.408773 0.000000
0.232786 0.408281 0.000000
0.274142 0.407790 0.000000
0.315502 0.407301 0.000000
0.356867 0.406815 0.000000
0.398236 0.406330 0.000000
0.439609 0.405847 0.000000
0.480986 0.405367 0.000000
0.522367 0.404888 0.000000
0.563752 0.404411 0.000000
0.605142 0.403936 0.000000
0.646535 0.403464 0.000000
0.687933 0.402993 0.000000
0.729335 0.402524 0.000000
0.770741 0.402057 0.000000
0.812151 0.401592 0.000000
0.853566 0.401129 0.000000
0.894984 0.400668 0.000000
0.936407 0.400209 0.000000
0.977833 0.399752 0.000000
1.000000 0.399297 0.000000
1.000000 0.398844 0.000000
1.000000 0.398393 0.000000
1.000000 0.397943 0.000000
1.000000 0.397496 0.000000
1.000000 0.397051 0.000000
0.000000 0.449259 0.000000
0.000000 0.448759 0.000000
0.000000 0.448261 0.000000
0.025317 0.447765 0.000000
0.066666 0.447270 0.000000
0.108019 0.446778 0.000000
0.149375 0.446288 0.000000
0.190736 0.445799 0.000000
0.232102 0.445313 0.000000
0.273471 0.444828 0.000000
0.314844 0.444346 0.000000
0.356222 0.443865 0.000000
0.397603 0.443387 0.000000
0.438989 0.442910 0.000000
0.480379 0.442436 0.000000
0.521773 0.441963 0.000000
0.563172 0.441493 0.000000
0.604574 0.441024 0.000000
0.645981 0.440557 0.000000
0.687391 0.440093 0.000000
0.728806 0.439630 0.000000
0.770225 0.439169 0.000000
0.811648 0.438710 0.000000
0.853075 0.438254 0.000000
0.894507 0.437799 0.000000
0.935942 0.437346 0.000000
0.977382 0.436895 0.000000
1.000000 0.436446 0.000000
1.000000 0.435999 0.000000
1.000000 0.435554 0.000000
1.000000 0.435111 0.000000
1.000000 0.434670 0.000000
1.000000 0.434231 0.000000
0.000000 0.486261 0.000000
0.000000 0.485767 0.000000
0.000000 0.485275 0.000000
0.024609 0.484785 0.000000
0.065971 0.484297 0.000000
0.107336 0.483811 0.000000
0.148706 0.483327 0.000000
0.190080 0.482844 0.000000
0.231458 0.482364 0.000000
0.272840 0.481886 0.000000
0.314226 0.481410 0.000000
0.355617 0.480935 0.000000
0.397011 0.480463 0.000000
0.438410 0.479993 0.000000
0.479813 0.479524 0.000000
0.521220 0.479058 0.000000
0.562631 0.478593 0.000000
0.604047 0.478131 0.000000
0.645466 0.477670 0.000000
0.686890 0.477212 0.000000
0.728317 0.476755 0.000000
0.769749 0.476301 0.000000
0.811185 0.475848 0.000000
0.852626 0.475397 0.000000
0.894070 0.474949 0.000000
0.935518 0.474502 0.000000
0.976971 0.474057 0.000000
1.000000 0.473614 0.000000
1.000000 0.473173 0.000000
1.000000 0.472735 0.000000
1.000000 0.472298 0.000000
1.000000 0.471863 0.000000
1.000000 0.471430 0.000000
0.000000 0.523283 0.000000
0.000000 0.522795 0.000000
0.000000 0.522309 0.000000
0.023941 0.521825 0.000000
0.065315 0.521343 0.000000
0.106694 0.520863 0.000000
0.148077 0.520385 0.000000
0.189463 0.519909 0.000000
0.230854 0.519435 0.000000
0.272250 0.518963 0.000000
0.313649 0.518493 0.000000
0.355052 0.518024 0.000000
0.396460 0.517558 0.000000
0.437871 0.517094 0.000000
0.479287 0.516632 0.000000
0.520707 0.516171 0.000000
0.562131 0.515713 0.000000
0.603560 0.515257 0.000000
0.644992 0.514802 0.000000
0.686428 0.514350 0.000000
0.727869 0.513900 0.000000
0.769314 0.513451 0.000000
0.810763 0.513005 0.000000
0.852216 0.512560 0.000000
0.893673 0.512118 0.000000
0.935135 0.511677 0.000000
0.976600 0.511238 0.000000
1.000000 0.510802 0.000000
1.000000 0.510367 0.000000
1.000000 0.509934 0.000000
1.000000 0.509504 0.000000
1.000000 0.509075 0.000000
1.000000 0.508648 0.000000
0.000000 0.560323 0.000000
0.000000 0.559842 0.000000
0.000000 0.559362 0.000000
0.023313 0.558884 0.000000
0.064701 0.558408 0.000000
0.106092 0.557934 0.000000
0.147488 0.557462 0.000000
0.188887 0.556993 0.000000
0.230291 0.556525 0.000000
0.271699 0.556059 0.000000
0.313112 0.555595 0.000000
0.354528 0.555133 0.000000
0.395948 0.554673 0.000000
0.437373 0.554214 0.000000
0.478802 0.553758 0.000000
0.520235 0.553304 0.000000
0.561672 0.552852 0.000000
0.603113 0.552402 0.000000
0.644558 0.551954 0.000000
0.686008 0.551507 0.000000
0.727461 0.551063 0.000000
0.768919 0.550621 0.000000
0.810381 0.550180 0.000000
0.851847 0.549742 0.000000
0.893317 0.549306 0.000000
0.934791 0.548871 0.000000
0.976270 0.548439 0.000000
1.000000 0.548008 0.000000
1.000000 0.547580 0.000000
1.000000 0.547153 0.000000
1.000000 0.546729 0.000000
1.000000 0.546306 0.000000
1.000000 0.545886 0.000000
0.000000 0.597383 0.000000
0.000000 0.596908 0.000000
0.000000 0.596434 0.000000
0.022726 0.595962 0.000000
0.064126 0.595493 0.000000
0.105531 0.595025 0.000000
0.146939 0.594559 0.000000
0.188352 0.594095 0.000000
0.229769 0.593634 0.000000
0.271190 0.593174 0.000000
0.312615 0.592716 0.000000
0.354044 0.592260 0.000000
0.395477 0.591806 0.000000
0.436915 0.591354 0.000000
0.478356 0.590904 0.000000
0.519802 0.590456 0.000000
0.561252 0.590010 0.000000
0.602706 0.589566 0.000000
0.644165 0.589124 0.000000
0.685627 0.588684 0.000000
0.727093 0.588246 0.000000
0.768564 0.587810 0.000000
0.810039 0.587376 0.000000
0.851518 0.586943 0.000000
0.893001 0.586513 0.000000
0.934488 0.586085 0.000000
0.975979 0.585659 0.000000
1.000000 0.585234 0.000000
1.000000 0.584812 0.000000
1.000000 0.584391 0.000000
1.000000 0.583973 0.000000
1.000000 0.583557 0.000000
1.000000 0.583142 0.000000
0.000000 0.634462 0.000000
0.000000 0.633993 0.000000
0.000000 0.633525 0.000000
0.022179 0.633060 0.000000
0.063592 0.632596 0.000000
0.105009 0.632135 0.000000
0.146431 0.631675 0.000000
0.187856 0.631217 0.000000
0.229286 0.630762 0.000000
0.270720 0.630308 0.000000
0.312158 0.629856 0.000000
0.353600 0.629407 0.000000
0.395047 0.628959 0.000000
0.436497 0.628513 0.000000
0.477952 0.628069 0.000000
0.519410 0.627627 0.000000
0.560873 0.627188 0.000000
0.602340 0.626750 0.000000
0.643811 0.626314 0.000000
0.685287 0.625880 0.000000
0.726766 0.625448 0.000000
0.768250 0.625018 0.000000
0.809737 0.624590 0.000000
0.851229 0.624164 0.000000
0.892725 0.623740 0.000000
0.934225 0.623318 0.000000
0.975730 0.622897 0.000000
1.000000 0.622479 0.000000
1.000000 0.622063 0.000000
1.000000 0.621649 0.000000
1.000000 0.621237 0.000000
1.000000 0.620826 0.000000
1.000000 0.620418 0.000000
0.000000 0.671560 0.000000
0.000000 0.671097 0.000000
0.000000 0.670636 0.000000
0.021672 0.670176 0.000000
0.063098 0.669719 0.000000
0.104528 0.669263 0.000000
0.145963 0.668810 0.000000
0.187401 0.668359 0.000000
0.228844 0.667909 0.000000
0.270291 0.667462 0.000000
0.311742 0.667016 0.000000
0.353197 0.666572 0.000000
0.394656 0.666131 0.000000
0.436119 0.665691 0.000000
0.477587 0.665254 0.000000
0.519059 0.664818 0.000000
0.560534 0.664384 0.000000
0.602014 0.663952 0.000000
0.643498 0.663523 0.000000
0.684987 0.663095 0.000000
0.726479 0.662669 0.000000
0.767975 0.662245 0.000000
0.809476 0.661823 0.000000
0.850981 0.661403 0.000000
0.892490 0.660985 0.000000
0.934003 0.660569 0.000000
0.975520 0.660155 0.000000
1.000000 0.659743 0.000000
1.000000 0.659333 0.000000
1.000000 0.658925 0.000000
1.000000 0.658519 0.000000
1.000000 0.658115 0.000000
1.000000 0.657713 0.000000
0.000000 0.708678 0.000000
0.000000 0.708220 0.000000
0.000000 0.707765 0.000000
0.021206 0.707312 0.000000
0.062645 0.706861 0.000000
0.104088 0.706412 0.000000
0.145535 0.705964 0.000000
0.186987 0.705519 0.000000
0.228442 0.705076 0.000000
0.269902 0.704634 0.000000
0.311366 0.704195 0.000000
0.352834 0.703757 0.000000
0.394306 0.703322 0.000000
0.435782 0.702888 0.000000
0.477263 0.702457 0.000000
0.518747 0.702027 0.000000
0.560236 0.701600 0.000000
0.601729 0.701174 0.000000
0.643226 0.700751 0.000000
0.684727 0.700329 0.000000
0.726232 0.699909 0.000000
0.767742 0.699492 0.000000
0.809255 0.699076 0.000000
0.850773 0.698662 0.000000
0.892295 0.698250 0.000000
0.933821 0.697841 0.000000
0.975351 0.697433 0.000000
1.000000 0.697027 0.000000
1.000000 0.696623 0.000000
1.000000 0.696221 0.000000
1.000000 0.695821 0.000000
1.000000 0.695423 0.000000
1.000000 0.695027 0.000000
0.000000 0.745814 0.000000
0.000000 0.745363 0.000000
0.000000 0.744914 0.000000
0.020780 0.744467 0.000000
0.062232 0.744022 0.000000
0.103688 0.743579 0.000000
0.145148 0.743138 0.000000
0.186612 0.742699 0.000000
0.228081 0.742261 0.000000
0.269553 0.741826 0.000000
0.311030 0.741393 0.000000
0.352511 0.740962 0.000000
0.393996 0.740532 0.000000
0.435485 0.740105 0.000000
0.476979 0.739680 0.000000
0.518476 0.739256 0.000000
0.559978 0.738835 0.000000
0.601484 0.738415 0.000000
0.642993 0.737998 0.000000
0.684508 0.737582 0.000000
0.726026 0.737169 0.000000
0.767548 0.736757 0.000000
0.809075 0.736348 0.000000
0.850605 0.735940 0.000000
0.892140 0.735535 0.000000
0.933679 0.735131 0.000000
0.975222 0.734729 0.000000
1.000000 0.734329 0.000000
1.000000 0.733932 0.000000
1.000000 0.733536 0.000000
1.000000 0.733142 0.000000
1.000000 0.732750 0.000000
1.000000 0.732360 0.000000
0.000000 0.782970 0.000000
0.000000 0.782525 0.000000
0.000000 0.782082 0.000000
0.020394 0.781641 0.000000
0.061859 0.781202 0.000000
0.103328 0.780765 0.000000
0.144801 0.780330 0.000000
0.186278 0.779897 0.000000
0.227759 0.779466 0.000000
0.269245 0.779037 0.000000
0.310735 0.778610 0.000000
0.352229 0.778185 0.000000
0.393727 0.777762 0.000000
0.435229 0.777341 0.000000
0.476735 0.776921 0.000000
0.518245 0.776504 0.000000
0.559760 0.776089 0.000000
0.601279 0.775676 0.000000
0.642801 0.775264 0.000000
0.684328 0.774855 0.000000
0.725860 0.774448 0.000000
0.767395 0.774042 0.000000
0.808934 0.773639 0.000000
0.850478 0.773237 0.000000
0.892025 0.772838 0.000000
0.933577 0.772440 0.000000
0.975133 0.772045 0.000000
1.000000 0.771651 0.000000
1.000000 0.771260 0.000000
1.000000 0.770870 0.000000
1.000000 0.770482 0.000000
1.000000 0.770097 0.000000
1.000000 0.769713 0.000000
0.000000 0.820145 0.000000
0.000000 0.819706 0.000000
0.000000 0.819269 0.000000
0.020048 0.818834 0.000000
0.061526 0.818402 0.000000
0.103008 0.817971 0.000000
0.144494 0.817542 0.000000
0.185984 0.817115 0.000000
0.227479 0.816690 0.000000
0.268977 0.816267 0.000000
0.310480 0.815846 0.000000
0.351986 0.815428 0.000000
0.393497 0.815011 0.000000
0.435012 0.814595 0.000000
0.476532 0.814182 0.000000
0.518055 0.813771 0.000000
0.559582 0.813362 0.000000
0.601114 0.812955 0.000000
0.642650 0.812550 0.000000
0.684190 0.812147 0.000000
0.725734 0.811746 0.000000
0.767282 0.811346 0.000000
0.808834 0.810949 0.000000
0.850391 0.810554 0.000000
0.891951 0.810160 0.000000
0.933516 0.809769 0.000000
0.975085 0.809380 0.000000
1.000000 0.808992 0.000000
1.000000 0.808607 0.000000
1.000000 0.808223 0.000000
1.000000 0.807842 0.000000
1.000000 0.807462 0.000000
1.000000 0.807085 0.000000
0.000000 0.857339 0.000000
0.000000 0.856906 0.000000
0.000000 0.856476 0.000000
0.019743 0.856047 0.000000
0.061234 0.855620 0.000000
0.102729 0.855196 0.000000
0.144228 0.854773 0.000000
0.185731 0.854352 0.000000
0.227238 0.853934 0.000000
0.268749 0.853517 0.000000
0.310265 0.853102 0.000000
0.351785 0.852689 0.000000
0.393308 0.852278 0.000000
0.434836 0.851870 0.000000
0.476368 0.851463 0.000000
0.517905 0.851058 0.000000
0.559445 0.850655 0.000000
0.600990 0.850254 0.000000
0.642538 0.849855 0.000000
0.684091 0.849458 0.000000
0.725648 0.849063 0.000000
0.767209 0.848669 0.000000
0.808775 0.848278 0.000000
0.850344 0.847889 0.000000
0.891917 0.847502 0.000000
0.933495 0.847117 0.000000
0.975077 0.846734 0.000000
1.000000 0.846352 0.000000
1.000000 0.845973 0.000000
1.000000 0.845596 0.000000
1.000000 0.845220 0.000000
1.000000 0.844847 0.000000
1.000000 0.844476 0.000000
0.000000 0.894552 0.000000
0.000000 0.894126 0.000000
0.000000 0.893701 0.000000
0.019478 0.893279 0.000000
0.060982 0.892858 0.000000
0.102490 0.892440 0.000000
0.144001 0.892023 0.000000
0.185517 0.891609 0.000000
0.227038 0.891196 0.000000
0.268562 0.890785 0.000000
0.310090 0.890377 0.000000
0.351623 0.889970 0.000000
0.393160 0.889565 0.000000
0.434701 0.889163 0.000000
0.476246 0.888762 0.000000
0.517795 0.888363 0.000000
0.559348 0.887966 0.000000
0.600906 0.887572 0.000000
0.642467 0.887179 0.000000
0.684033 0.886788 0.000000
0.725603 0.886399 0.000000
0.767177 0.886012 0.000000
0.808755 0.885627 0.000000
0.850337 0.885244 0.000000
0.891924 0.884863 0.000000
0.933515 0.884484 0.000000
0.975109 0.884107 0.000000
