luts/golden-hour.cube
TITLE "Golden Hour"
LUT_3D_SIZE 9
DOMAIN_MIN 0.0 0.0 0.0
DOMAIN_MAX 1.0 1.0 1.0
0.000000 0.000000 0.000000
0.080634 0.000000 0.000000
0.245346 0.000000 0.000000
0.410124 0.000000 0.000000
0.574968 0.000000 0.000000
0.739879 0.000000 0.000000
0.904856 0.000000 0.000000
1.000000 0.000000 0.000000
1.000000 0.000000 0.000000
0.000000 0.080292 0.000000
0.075837 0.078057 0.000000
0.240755 0.075854 0.000000
0.405740 0.073682 0.000000
0.570792 0.071542 0.000000
0.735909 0.069433 0.000000
0.901093 0.067356 0.000000
1.000000 0.065310 0.000000
1.000000 0.063296 0.000000
0.000000 0.227649 0.000000
0.071685 0.225512 0.000000
0.236810 0.223407 0.000000
0.402002 0.221334 0.000000
0.567260 0.219292 0.000000
0.732584 0.217282 0.000000
0.897975 0.215303 0.000000
1.000000 0.213355 0.000000
1.000000 0.211440 0.000000
0.000000 0.375312 0.000000
0.068178 0.373274 0.000000
0.233510 0.371268 0.000000
0.398908 0.369293 0.000000
0.564373 0.367349 0.000000
0.729904 0.365437 0.000000
0.895502 0.363557 0.000000
1.000000 0.361708 0.000000
1.000000 0.359890 0.000000
0.000000 0.523283 0.000000
0.065315 0.521343 0.000000
0.230854 0.519435 0.000000
0.396460 0.517558 0.000000
0.562131 0.515713 0.000000
0.727869 0.513900 0.000000
0.893673 0.512118 0.000000
1.000000 0.510367 0.000000
1.000000 0.508648 0.000000
0.000000 0.671560 0.000000
0.063098 0.669719 0.000000
0.228844 0.667909 0.000000
0.394656 0.666131 0.000000
0.560534 0.664384 0.000000
0.726479 0.662669 0.000000
0.892490 0.660985 0.000000
1.000000 0.659333 0.000000
1.000000 0.657713 0.000000
0.000000 0.820145 0.000000
0.061526 0.818402 0.000000
0.227479 0.816690 0.000000
0.393497 0.815011 0.000000
0.559582 0.813362 0.000000
0.725734 0.811746 0.000000
0.891951 0.810160 0.000000
1.000000 0.808607 0.000000
1.000000 0.807085 0.000000
0.000000 0.969036 0.000000
0.060599 0.967392 0.000000
0.226758 0.965779 0.000000
0.392984 0.964197 0.000000
0.559275 0.962647 0.000000
0.725633 0.961129 0.000000
0.892058 0.959642 0.000000
1.000000 0.958187 0.000000
1.000000 0.956763 0.000000
0.000000 1.000000 0.000000
0.060316 1.000000 0.000000
0.226682 1.000000 0.000000
0.393115 1.000000 0.000000
0.559613 1.000000 0.000000
0.726178 1.000000 0.000000
0.892809 1.000000 0.000000
1.000000 1.000000 0.000000
1.000000 1.000000 0.000000
0.000000 0.000000 0.118239
0.080180 0.000000 0.113427
0.244911 0.000000 0.108657
0.409707 0.000000 0.103931
0.574570 0.000000 0.099248
0.739499 0.000000 0.094607
0.904495 0.000000 0.090010
1.000000 0.000000 0.085457
1.000000 0.000000 0.080946
0.000000 0.079668 0.103369
0.075441 0.077442 0.098691
0.240378 0.075247 0.094056
0.405381 0.073084 0.089464
0.570451 0.070953 0.084916
0.735587 0.068853 0.080410
0.900789 0.066784 0.075948
1.000000 0.064747 0.071528
1.000000 0.062742 0.067152
0.000000 0.227052 0.088919
0.071346 0.224924 0.084375
0.236490 0.222828 0.079875
0.401700 0.220763 0.075418
0.566977 0.218730 0.071003
0.732319 0.216729 0.066632
0.897728 0.214758 0.062304
1.000000 0.212820 0.058020
1.000000 0.210913 0.053778
0.000000 0.374743 0.074888
0.067896 0.372713 0.070479
0.233247 0.370716 0.066113
0.398664 0.368749 0.061791
0.564147 0.366815 0.057511
0.729697 0.364911 0.053274
0.895313 0.363040 0.049081
1.000000 0.361200 0.044931
1.000000 0.359391 0.040823
0.000000 0.522741 0.061277
0.065092 0.520810 0.057003
0.230649 0.518910 0.052771
0.396273 0.517042 0.048583
0.561963 0.515206 0.044438
0.727719 0.513401 0.040336
0.893542 0.511628 0.036277
1.000000 0.509886 0.032261
1.000000 0.508176 0.028289
0.000000 0.671045 0.048086
0.062932 0.669213 0.043946
0.228696 0.667412 0.039849
0.394527 0.665642 0.035795
0.560423 0.663904 0.031785
0.726386 0.662198 0.027817
0.892416 0.660523 0.023893
1.000000 0.658880 0.020012
1.000000 0.657268 0.016173
0.000000 0.819657 0.035314
0.061417 0.817923 0.031309
0.227388 0.816220 0.027346
0.393425 0.814549 0.023427
0.559529 0.812910 0.019551
0.725699 0.811302 0.015718
0.891935 0.809725 0.011928
1.000000 0.808181 0.008182
1.000000 0.806667 0.004478
0.000000 0.968576 0.022962
0.060547 0.966940 0.019091
0.226725 0.965336 0.015263
0.392969 0.963763 0.011479
0.559279 0.962222 0.007737
0.725656 0.960713 0.004039
0.892099 0.959235 0.000383
1.000000 0.957788 0.000000
1.000000 0.956373 0.000000
0.000000 1.000000 0.011030
0.060323 1.000000 0.007293
0.226707 1.000000 0.003600
0.393158 1.000000 0.000000
0.559675 1.000000 0.000000
0.726258 1.000000 0.000000
0.892907 1.000000 0.000000
1.000000 1.000000 0.000000
1.000000 1.000000 0.000000
0.000000 0.000000 0.252978
0.079732 0.000000 0.248177
0.244481 0.000000 0.243420
0.409296 0.000000 0.238705
0.574177 0.000000 0.234034
0.739125 0.000000 0.229406
0.904139 0.000000 0.224821
1.000000 0.000000 0.220279
1.000000 0.000000 0.215780
0.000000 0.079047 0.238145
0.075050 0.076829 0.233479
0.240005 0.074643 0.228856
0.405027 0.072489 0.224276
0.570115 0.070366 0.219739
0.735270 0.068275 0.215246
0.900490 0.066215 0.210795
1.000000 0.064187 0.206388
1.000000 0.062190 0.202024
0.000000 0.226458 0.223732
0.071013 0.224339 0.219201
0.236175 0.222251 0.214712
0.401404 0.220195 0.210267
0.566698 0.218171 0.205865
0.732060 0.216178 0.201505
0.897487 0.214217 0.197190
1.000000 0.212287 0.192917
1.000000 0.210389 0.188687
0.000000 0.374176 0.209739
0.067620 0.372155 0.205342
0.232990 0.370166 0.200988
0.398425 0.368209 0.196677
0.563927 0.366283 0.192409
0.729494 0.364388 0.188185
0.895129 0.362525 0.184003
1.000000 0.360694 0.179865
1.000000 0.358894 0.175770
0.000000 0.522201 0.196165
0.064873 0.520279 0.191903
0.230449 0.518388 0.187683
0.396091 0.516529 0.183507
0.561800 0.514701 0.179374
0.727574 0.512905 0.175284
0.893415 0.511141 0.171237
1.000000 0.509408 0.167233
1.000000 0.507707 0.163272
0.000000 0.670533 0.183011
0.062771 0.668709 0.178883
0.228554 0.666917 0.174798
0.394402 0.665156 0.170757
0.560318 0.663427 0.166758
0.726299 0.661730 0.162802
0.892347 0.660063 0.158890
1.000000 0.658429 0.155021
1.000000 0.656826 0.151195
0.000000 0.819172 0.170277
0.061314 0.817447 0.166283
0.227303 0.815753 0.162333
0.393359 0.814091 0.158426
0.559480 0.812460 0.154562
0.725669 0.810861 0.150741
0.891923 0.809293 0.146963
1.000000 0.807757 0.143228
1.000000 0.806252 0.139537
0.000000 0.968118 0.157962
0.060501 0.966491 0.154103
0.226697 0.964896 0.150287
0.392960 0.963332 0.146515
0.559288 0.961800 0.142785
0.725683 0.960299 0.139099
0.892144 0.958830 0.135455
1.000000 0.957392 0.131855
1.000000 0.955986 0.128298
0.000000 1.000000 0.146067
0.060334 1.000000 0.142343
0.226737 1.000000 0.138661
0.393206 1.000000 0.135023
0.559741 1.000000 0.131428
0.726343 1.000000 0.127876
0.893011 1.000000 0.124367
1.000000 1.000000 0.120902
1.000000 1.000000 0.117479
0.000000 0.000000 0.387719
0.079289 0.000000 0.382931
0.244056 0.000000 0.378185
0.408889 0.000000 0.373483
0.573789 0.000000 0.368824
0.738755 0.000000 0.364207
0.903788 0.000000 0.359634
1.000000 0.000000 0.355104
1.000000 0.000000 0.350618
0.000000 0.078427 0.372924
0.074664 0.076219 0.368270
0.239638 0.074041 0.363659
0.404678 0.071896 0.359091
0.569785 0.069782 0.354566
0.734958 0.067699 0.350085
0.900197 0.065648 0.345646
1.000000 0.063629 0.341251
1.000000 0.061641 0.336899
0.000000 0.225866 0.358549
0.070684 0.223755 0.354029
0.235865 0.221677 0.349553
0.401112 0.219630 0.345119
0.566425 0.217614 0.340729
0.731805 0.215630 0.336382
0.897251 0.213677 0.332078
1.000000 0.211756 0.327817
1.000000 0.209867 0.323599
0.000000 0.373611 0.344593
0.067350 0.371599 0.340208
0.232737 0.369619 0.335866
0.398191 0.367670 0.331567
0.563711 0.365753 0.327311
0.729297 0.363867 0.323099
0.894950 0.362013 0.318929
1.000000 0.360191 0.314803
1.000000 0.358400 0.310720
0.000000 0.521664 0.331056
0.064660 0.519750 0.326806
0.230254 0.517868 0.322599
0.395915 0.516018 0.318434
0.561641 0.514199 0.314313
0.727434 0.512412 0.310235
0.893294 0.510656 0.306200
1.000000 0.508932 0.302208
1.000000 0.507239 0.298260
0.000000 0.670023 0.317940
0.062615 0.668208 0.313824
0.228416 0.666425 0.309751
0.394283 0.664673 0.305721
0.560217 0.662952 0.301735
0.726217 0.661263 0.297791
0.892283 0.659606 0.293891
1.000000 0.657980 0.290033
1.000000 0.656386 0.286219
0.000000 0.818690 0.305243
0.061215 0.816973 0.301261
0.227223 0.815288 0.297323
0.393297 0.813634 0.293428
0.559437 0.812012 0.289576
0.725644 0.810422 0.285767
0.891917 0.808863 0.282001
1.000000 0.807336 0.278278
1.000000 0.805840 0.274598
0.000000 0.967663 0.292966
0.060460 0.966045 0.289119
0.226675 0.964458 0.285315
0.392955 0.962903 0.281554
0.559303 0.961379 0.277836
0.725716 0.959887 0.274162
0.892195 0.958427 0.270531
1.000000 0.956998 0.266942
1.000000 0.955601 0.263397
0.000000 1.000000 0.281108
0.060350 1.000000 0.277395
0.226771 1.000000 0.273726
0.393259 1.000000 0.270100
0.559813 1.000000 0.266517
0.726433 1.000000 0.262977
0.893119 1.000000 0.259480
1.000000 1.000000 0.256026
1.000000 1.000000 0.252616
0.000000 0.000000 0.522465
0.078851 0.000000 0.517688
0.243636 0.000000 0.512954
0.408488 0.000000 0.508264
0.573406 0.000000 0.503617
0.738391 0.000000 0.499012
0.903442 0.000000 0.494451
1.000000 0.000000 0.489933
1.000000 0.000000 0.485459
0.000000 0.077810 0.507707
0.074283 0.075610 0.503065
0.239276 0.073442 0.498466
0.404334 0.071305 0.493910
0.569459 0.069200 0.489397
0.734651 0.067126 0.484927
0.899908 0.065084 0.480501
1.000000 0.063073 0.476117
1.000000 0.061094 0.471777
0.000000 0.225276 0.493369
0.070361 0.223175 0.488861
0.235560 0.221105 0.484396
0.400826 0.219066 0.479975
0.566157 0.217059 0.475597
0.731555 0.215084 0.471262
0.897020 0.213140 0.466970
1.000000 0.211228 0.462721
1.000000 0.209347 0.458515
0.000000 0.373049 0.479450
0.067084 0.371046 0.475077
0.232490 0.369074 0.470747
0.397962 0.367134 0.466460
0.563500 0.365226 0.462216
0.729105 0.363349 0.458016
0.894776 0.361504 0.453858
1.000000 0.359690 0.449744
1.000000 0.357908 0.445673
0.000000 0.521129 0.465951
0.064452 0.519224 0.461713
0.230064 0.517351 0.457517
0.395743 0.515509 0.453365
0.561488 0.513699 0.449256
0.727300 0.511921 0.445190
0.893178 0.510174 0.441167
1.000000 0.508459 0.437187
1.000000 0.506775 0.433250
0.000000 0.669516 0.452872
0.062464 0.667709 0.448768
0.228284 0.665935 0.444707
0.394169 0.664191 0.440689
0.560121 0.662480 0.436714
0.726139 0.660800 0.432783
0.892224 0.659151 0.428894
1.000000 0.657534 0.425049
1.000000 0.655949 0.421247
0.000000 0.818209 0.440212
0.061122 0.816502 0.436243
0.227148 0.814825 0.432316
0.393240 0.813181 0.428433
0.559399 0.811567 0.424593
0.725624 0.809986 0.420796
0.891915 0.808436 0.417042
1.000000 0.806917 0.413331
1.000000 0.805430 0.409664
0.000000 0.967210 0.427972
0.060424 0.965601 0.424137
0.226657 0.964023 0.420345
0.392956 0.962477 0.416597
0.559322 0.960962 0.412891
0.725754 0.959479 0.409229
0.892252 0.958027 0.405609
1.000000 0.956607 0.402033
1.000000 0.955218 0.398500
0.000000 1.000000 0.416152
0.060372 1.000000 0.412452
0.226811 1.000000 0.408794
0.393317 1.000000 0.405180
0.559890 1.000000 0.401609
0.726528 1.000000 0.398081
0.893233 1.000000 0.394596
1.000000 1.000000 0.391154
1.000000 1.000000 0.387756
0.000000 0.000000 0.657213
0.078418 0.000000 0.652448
0.243222 0.000000 0.647727
0.408092 0.000000 0.643048
0.573029 0.000000 0.638413
0.738031 0.000000 0.633821
0.903101 0.000000 0.629272
1.000000 0.000000 0.624766
1.000000 0.000000 0.620303
0.000000 0.077196 0.642493
0.073908 0.075005 0.637862
0.238919 0.072845 0.633275
0.403996 0.070717 0.628731
0.569139 0.068621 0.624231
0.734349 0.066556 0.619773
0.899625 0.064522 0.615358
1.000000 0.062520 0.610987
1.000000 0.060550 0.606659
0.000000 0.224689 0.628192
0.070043 0.222596 0.623696
0.235261 0.220535 0.619244
0.400544 0.218506 0.614834
0.565895 0.216507 0.610468
0.731311 0.214541 0.606145
0.896794 0.212606 0.601865
1.000000 0.210702 0.597628
1.000000 0.208831 0.593434
0.000000 0.372489 0.614311
0.066823 0.370495 0.609949
0.232248 0.368532 0.605631
0.397738 0.366601 0.601357
0.563295 0.364701 0.597125
0.728918 0.362833 0.592936
0.894608 0.360997 0.588791
1.000000 0.359191 0.584688
1.000000 0.357418 0.580629
0.000000 0.520596 0.600849
0.064248 0.518701 0.596622
0.229879 0.516836 0.592439
0.395577 0.515003 0.588299
0.561340 0.513202 0.584201
0.727170 0.511432 0.580147
0.893067 0.509694 0.576136
1.000000 0.507988 0.572169
1.000000 0.506312 0.568244
0.000000 0.669011 0.587807
0.062318 0.667213 0.583715
0.228156 0.665447 0.579666
0.394060 0.663713 0.575660
0.560031 0.662010 0.571698
0.726067 0.660339 0.567778
0.892170 0.658699 0.563902
1.000000 0.657091 0.560068
1.000000 0.655514 0.556278
0.000000 0.817732 0.575185
0.061033 0.816033 0.571227
0.227078 0.814365 0.567313
0.393189 0.812729 0.563442
0.559366 0.811125 0.559614
0.725609 0.809552 0.555829
0.891919 0.808010 0.552087
1.000000 0.806501 0.548388
1.000000 0.805022 0.544732
0.000000 0.966760 0.562982
0.060393 0.965159 0.559159
0.226645 0.963590 0.555379
0.392962 0.962052 0.551643
0.559346 0.960546 0.547949
0.725796 0.959072 0.544299
0.892313 0.957629 0.540691
1.000000 0.956218 0.537127
1.000000 0.954838 0.533606
0.000000 1.000000 0.551199
0.060398 1.000000 0.547511
0.226856 1.000000 0.543866
0.393381 1.000000 0.540263
0.559971 1.000000 0.536704
0.726628 1.000000 0.533188
0.893351 1.000000 0.529715
1.000000 1.000000 0.526286
1.000000 1.000000 0.522899
0.000000 0.000000 0.791965
0.077990 0.000000 0.787212
0.242812 0.000000 0.782502
0.407701 0.000000 0.777836
0.572656 0.000000 0.773213
0.737677 0.000000 0.768632
0.902765 0.000000 0.764095
1.000000 0.000000 0.759601
1.000000 0.000000 0.755151
0.000000 0.076584 0.777282
0.073537 0.074402 0.772664
0.238567 0.072251 0.768088
0.403662 0.070131 0.763557
0.568824 0.068044 0.759068
0.734052 0.065987 0.754622
0.899346 0.063963 0.750219
1.000000 0.061970 0.745860
1.000000 0.060008 0.741544
0.000000 0.224104 0.763018
0.069730 0.222020 0.758535
0.234966 0.219968 0.754094
0.400268 0.217947 0.749697
0.565637 0.215958 0.745342
0.731072 0.214000 0.741031
0.896573 0.212074 0.736763
1.000000 0.210179 0.732538
1.000000 0.208316 0.728357
0.000000 0.371932 0.749174
0.066568 0.369946 0.744825
0.232010 0.367992 0.740519
0.397519 0.366070 0.736256
0.563095 0.364179 0.732037
0.728736 0.362320 0.727860
0.894444 0.360492 0.723727
1.000000 0.358696 0.719636
1.000000 0.356931 0.715589
0.000000 0.520066 0.735750
0.064050 0.518179 0.731536
0.229700 0.516324 0.727364
0.395416 0.514500 0.723236
0.561198 0.512707 0.719151
0.727046 0.510946 0.715109
0.892961 0.509217 0.711110
1.000000 0.507519 0.707154
1.000000 0.505853 0.703241
0.000000 0.668508 0.722746
0.062178 0.666719 0.718666
0.228034 0.664962 0.714629
0.393957 0.663236 0.710635
0.559945 0.661542 0.706684
0.726000 0.659880 0.702777
0.892122 0.658249 0.698912
1.000000 0.656649 0.695091
1.000000 0.655081 0.691313
0.000000 0.817256 0.710161
0.060950 0.815566 0.706215
0.227013 0.813907 0.702313
0.393142 0.812280 0.698454
0.559338 0.810684 0.694638
0.725600 0.809120 0.690865
0.891928 0.807588 0.687135
1.000000 0.806087 0.683448
1.000000 0.804617 0.679804
0.000000 0.966312 0.697996
0.060368 0.964720 0.694185
0.226637 0.963160 0.690417
0.392973 0.961631 0.686692
0.559376 0.960134 0.683010
0.725844 0.958668 0.679372
0.892379 0.957234 0.675777
1.000000 0.955831 0.672224
1.000000 0.954460 0.668715
0.000000 1.000000 0.686250
0.060430 1.000000 0.682574
0.226906 1.000000 0.678940
0.393449 1.000000 0.675350
0.560058 1.000000 0.671803
0.726734 1.000000 0.668299
0.893475 1.000000 0.664838
1.000000 1.000000 0.661420
1.000000 1.000000 0.658046
0.000000 0.000000 0.926720
0.077567 0.000000 0.921979
0.242408 0.000000 0.917282
0.407315 0.000000 0.912627
0.572288 0.000000 0.908016
0.737328 0.000000 0.903447
0.902434 0.000000 0.898922
1.000000 0.000000 0.894440
1.000000 0.000000 0.890002
0.000000 0.075974 0.912074
0.073172 0.073801 0.907468
0.238220 0.071659 0.902905
0.403334 0.069548 0.898385
0.568514 0.067469 0.893908
0.733760 0.065422 0.889474
0.899073 0.063406 0.885084
1.000000 0.061422 0.880736
1.000000 0.059469 0.876432
0.000000 0.223522 0.897848
0.069422 0.221447 0.893376
0.234677 0.219403 0.888948
0.399997 0.217391 0.884562
0.565384 0.215411 0.880220
0.730838 0.213462 0.875921
0.896357 0.211544 0.871665
1.000000 0.209658 0.867452
1.000000 0.207804 0.863282
0.000000 0.371377 0.884042
0.066317 0.369400 0.879705
0.231778 0.367455 0.875411
0.397306 0.365541 0.871160
0.562900 0.363659 0.866952
0.728560 0.361809 0.862787
0.894286 0.359990 0.858666
1.000000 0.358202 0.854587
1.000000 0.356446 0.850552
0.000000 0.519539 0.870655
0.063857 0.517661 0.866452
0.229525 0.515814 0.862293
0.395259 0.513998 0.858176
0.561060 0.512215 0.854103
0.726927 0.510462 0.850073
0.892860 0.508742 0.846086
1.000000 0.507053 0.842142
1.000000 0.505395 0.838242
0.000000 0.668008 0.857688
0.062042 0.666228 0.853620
0.227917 0.664479 0.849595
0.393858 0.662763 0.845613
0.559865 0.661077 0.841674
0.725939 0.659423 0.837779
0.892078 0.657801 0.833926
1.000000 0.656211 0.830117
1.000000 0.654651 0.826351
0.000000 0.816784 0.845140
0.060872 0.815102 0.841207
0.226954 0.813452 0.837316
0.393101 0.811834 0.833469
0.559315 0.810247 0.829665
0.725595 0.808691 0.825904
0.891942 0.807168 0.822186
1.000000 0.805675 0.818511
1.000000 0.804215 0.814879
0.000000 0.965866 0.833013
0.060347 0.964283 0.829214
0.226635 0.962732 0.825458
0.392990 0.961212 0.821745
0.559410 0.959723 0.818075
0.725897 0.958266 0.814449
0.892451 0.956841 0.810865
1.000000 0.955447 0.807325
1.000000 0.954085 0.803828
0.000000 1.000000 0.821304
0.060467 1.000000 0.817640
0.226962 1.000000 0.814018
0.393523 1.000000 0.810440
0.560150 1.000000 0.806905
0.726844 1.000000 0.803413
0.893604 1.000000 0.799964
1.000000 1.000000 0.796558
1.000000 1.000000 0.793196
0.000000 0.000000 1.000000
0.077149 0.000000 1.000000
0.242009 0.000000 1.000000
0.406934 0.000000 1.000000
0.571926 0.000000 1.000000
0.736984 0.000000 1.000000
0.902109 0.000000 1.000000
1.000000 0.000000 1.000000
1.000000 0.000000 1.000000
0.000000 0.075367 1.000000
0.072812 0.073202 1.000000
0.237878 0.071069 1.000000
0.403010 0.068967 1.000000
0.568209 0.066897 1.000000
0.733474 0.064858 1.000000
0.898805 0.062851 1.000000
1.000000 0.060876 1.000000
1.000000 0.058932 1.000000
0.000000 0.222942 1.000000
0.069119 0.220876 1.000000
0.234392 0.218841 1.000000
0.399731 0.216838 1.000000
0.565137 0.214866 1.000000
0.730608 0.212926 1.000000
0.896146 0.211017 1.000000
1.000000 0.209140 1.000000
1.000000 0.207294 0.998211
0.000000 0.370825 1.000000
0.066072 0.368857 1.000000
0.231552 0.366920 1.000000
0.397097 0.365015 1.000000
0.562710 0.363142 1.000000
0.728388 0.361300 0.997718
0.894133 0.359490 0.993608
1.000000 0.357711 0.989542
1.000000 0.355964 0.985518
0.000000 0.519014 1.000000
0.063669 0.517144 1.000000
0.229356 0.515306 0.997225
0.395108 0.513500 0.993120
0.560927 0.511725 0.989059
0.726812 0.509981 0.985041
0.892764 0.508269 0.981066
1.000000 0.506589 0.977134
1.000000 0.504940 0.973245
0.000000 0.667510 0.992633
0.061912 0.665739 0.988577
0.227805 0.663999 0.984564
0.393764 0.662291 0.980594
0.559790 0.660615 0.976667
0.725882 0.658969 0.972784
0.892040 0.657356 0.968943
1.000000 0.655774 0.965146
1.000000 0.654224 0.961392
0.000000 0.816313 0.980123
0.060799 0.814640 0.976201
0.226899 0.812999 0.972323
0.393065 0.811389 0.968488
0.559298 0.809811 0.964695
0.725596 0.808265 0.960946
0.891961 0.806750 0.957240
1.000000 0.805266 0.953578
1.000000 0.803814 0.949958
0.000000 0.965423 0.968033
0.060332 0.963849 0.964246
0.226638 0.962306 0.960502
0.393011 0.960795 0.956801
0.559450 0.959315 0.953143
0.725956 0.957867 0.949529
0.892527 0.956450 0.945957
1.000000 0.955065 0.942429
1.000000 0.953712 0.938944
0.000000 1.000000 0.956362
0.060509 1.000000 0.952709
0.227022 1.000000 0.949100
0.393602 1.000000 0.945534
0.560248 1.000000 0.942010
0.726960 1.000000 0.938530
0.893738 1.000000 0.935094
1.000000 1.000000 0.931700
1.000000 1.000000 0.928349
