luts/kodak-warm.cube
TITLE "Kodak Warm"
LUT_3D_SIZE 9
DOMAIN_MIN 0.0 0.0 0.0
DOMAIN_MAX 1.0 1.0 1.0
0.000000 0.000000 0.000000
0.110437 0.000000 0.000000
0.242676 0.000000 0.000000
0.374907 0.000000 0.000000
0.507132 0.000000 0.000000
0.639349 0.000000 0.000000
0.771560 0.000000 0.000000
0.903763 0.000000 0.000000
1.000000 0.000000 0.000000
0.000000 0.082857 0.000000
0.116271 0.103613 0.000000
0.248487 0.105791 0.000000
0.380696 0.107992 0.000000
0.512898 0.110213 0.000000
0.645093 0.112456 0.000000
0.777280 0.114721 0.000000
0.909461 0.117006 0.000000
1.000000 0.119313 0.000000
0.000000 0.194181 0.000000
0.126726 0.216995 0.000000
0.254226 0.237116 0.000000
0.386412 0.239385 0.000000
0.518591 0.241675 0.000000
0.650763 0.243986 0.000000
0.782929 0.246319 0.000000
0.915087 0.248673 0.000000
1.000000 0.251049 0.000000
0.010871 0.305677 0.000000
0.137647 0.328545 0.000000
0.264416 0.351431 0.000000
0.392056 0.370997 0.000000
0.524212 0.373356 0.000000
0.656362 0.375736 0.000000
0.788505 0.378137 0.000875
0.920640 0.380559 0.003911
1.000000 0.383003 0.006982
0.021751 0.417346 0.000000
0.148508 0.440269 0.000000
0.275258 0.463208 0.000000
0.402003 0.486164 0.000607
0.529761 0.505256 0.004535
0.661888 0.507704 0.007612
0.794008 0.510174 0.010725
0.926121 0.512665 0.013872
1.000000 0.515177 0.017054
0.032570 0.529189 0.000000
0.159308 0.552165 0.001032
0.286040 0.575159 0.005207
0.412766 0.598169 0.009416
0.539486 0.621196 0.013659
0.667342 0.639892 0.017707
0.799439 0.642430 0.020931
0.931530 0.644989 0.024189
1.000000 0.647570 0.027482
0.043330 0.641204 0.005723
0.170048 0.664235 0.009974
0.296761 0.687282 0.014259
0.423469 0.710346 0.018578
0.550170 0.733427 0.022932
0.676865 0.756525 0.027321
0.804798 0.774905 0.031493
0.936866 0.777533 0.034862
1.000000 0.780182 0.038267
0.053838 0.754120 0.014946
0.180728 0.776477 0.019269
0.307423 0.799579 0.023665
0.434111 0.822697 0.028095
0.560793 0.845832 0.032559
0.687470 0.868984 0.037058
0.814141 0.892153 0.041592
0.942130 0.910296 0.045892
1.000000 0.913013 0.049408
0.064257 0.867314 0.024529
0.191348 0.888893 0.028918
0.318024 0.912048 0.033424
0.444693 0.935220 0.037965
0.571357 0.958409 0.042540
0.698014 0.981615 0.047150
0.824666 1.000000 0.051794
0.951312 1.000000 0.056472
1.000000 1.000000 0.060905
0.000000 0.000000 0.076735
0.111000 0.000000 0.079239
0.243236 0.000000 0.081779
0.375466 0.000000 0.084353
0.507688 0.000000 0.086961
0.639903 0.000000 0.089605
0.772111 0.000000 0.092283
0.904313 0.000000 0.094996
1.000000 0.000000 0.097743
0.000000 0.099386 0.084737
0.116826 0.104280 0.087497
0.249040 0.106465 0.090148
0.381247 0.108672 0.092833
0.513447 0.110900 0.095553
0.645640 0.113150 0.098308
0.777825 0.115421 0.101097
0.910004 0.117713 0.103921
1.000000 0.120027 0.106780
0.000000 0.211157 0.092209
0.127280 0.217661 0.095162
0.254772 0.237811 0.098873
0.386956 0.240086 0.101670
0.519133 0.242383 0.104501
0.651304 0.244701 0.107367
0.783467 0.247040 0.110268
0.915623 0.249401 0.113203
1.000000 0.251783 0.116173
0.007006 0.323170 0.100038
0.138195 0.329228 0.103076
0.264963 0.352119 0.107040
0.392593 0.371720 0.110863
0.524748 0.374085 0.113806
0.656895 0.376471 0.116783
0.789036 0.378879 0.119795
0.921169 0.381308 0.122841
1.000000 0.383758 0.125923
0.017731 0.435424 0.108225
0.149051 0.440968 0.111343
0.275799 0.463913 0.115418
0.402542 0.486874 0.119527
0.530289 0.506006 0.123467
0.662414 0.508461 0.126555
0.794532 0.510937 0.129678
0.926643 0.513434 0.132836
1.000000 0.515953 0.136029
0.028378 0.547919 0.116770
0.159845 0.552881 0.119964
0.286575 0.575880 0.124150
0.413299 0.598895 0.128369
0.540018 0.621927 0.132624
0.667861 0.640669 0.136684
0.799956 0.643214 0.139918
0.932045 0.645780 0.143187
1.000000 0.648367 0.146491
0.038946 0.660654 0.125672
0.170580 0.664967 0.128940
0.297291 0.688020 0.133235
0.423996 0.711089 0.137566
0.550696 0.734176 0.141930
0.677389 0.757279 0.146329
0.805308 0.775710 0.150514
0.937374 0.778344 0.153895
1.000000 0.781000 0.157310
0.049437 0.773631 0.134932
0.181254 0.777226 0.138269
0.307946 0.800333 0.142675
0.434633 0.823456 0.147116
0.561314 0.846597 0.151591
0.687988 0.869754 0.156101
0.814657 0.892928 0.160645
0.942631 0.911128 0.164959
1.000000 0.913853 0.168485
0.059849 0.886848 0.144549
0.191868 0.889658 0.147952
0.318542 0.912819 0.152469
0.445209 0.935996 0.157020
0.571871 0.959191 0.161606
0.698527 0.982402 0.166226
0.825177 1.000000 0.170881
0.951821 1.000000 0.175570
1.000000 1.000000 0.180017
0.000000 0.000000 0.195491
0.111562 0.000000 0.198006
0.243796 0.000000 0.200556
0.376023 0.000000 0.203140
0.508243 0.000000 0.205760
0.640456 0.000000 0.208414
0.772662 0.000000 0.211103
0.904861 0.000000 0.213826
1.000000 0.000000 0.216584
0.000000 0.102778 0.203672
0.117381 0.104949 0.206298
0.249593 0.107141 0.208959
0.381798 0.109354 0.211655
0.513995 0.111589 0.214386
0.646186 0.113845 0.217151
0.778369 0.116123 0.219951
0.910546 0.118422 0.222786
1.000000 0.120742 0.225655
0.000000 0.230555 0.212026
0.124015 0.232873 0.214768
0.255318 0.238508 0.217719
0.387500 0.240790 0.220526
0.519675 0.243093 0.223368
0.651843 0.245417 0.226244
0.784004 0.247763 0.229156
0.916158 0.250130 0.232102
1.000000 0.252519 0.235083
0.002635 0.342591 0.219889
0.134786 0.344984 0.222743
0.265509 0.352808 0.225918
0.393130 0.372444 0.229754
0.525282 0.374816 0.232707
0.657428 0.377209 0.235694
0.789566 0.379623 0.238717
0.921697 0.382059 0.241774
1.000000 0.384516 0.244866
0.013352 0.454868 0.228111
0.145479 0.457336 0.231076
0.276340 0.464619 0.234330
0.403081 0.487585 0.238450
0.530817 0.506758 0.242402
0.662940 0.509219 0.245501
0.795055 0.511702 0.248635
0.927164 0.514206 0.251803
1.000000 0.516731 0.255006
0.023991 0.567386 0.236690
0.156094 0.569929 0.239766
0.287110 0.576602 0.243096
0.413832 0.599623 0.247326
0.540549 0.622661 0.251591
0.668380 0.641449 0.255664
0.800473 0.644000 0.258909
0.932559 0.646572 0.262189
1.000000 0.649166 0.265503
0.034553 0.680144 0.245626
0.166630 0.682763 0.248814
0.297820 0.688759 0.252216
0.424524 0.711834 0.256556
0.551221 0.734925 0.260932
0.677913 0.758033 0.265341
0.805818 0.776517 0.269539
0.937881 0.779158 0.272930
1.000000 0.781820 0.276356
0.045036 0.793144 0.254920
0.177089 0.795838 0.258220
0.308470 0.801089 0.261689
0.435154 0.824217 0.266141
0.561833 0.847363 0.270626
0.688506 0.870525 0.275147
0.815173 0.893704 0.279701
0.943131 0.911963 0.284029
1.000000 0.914694 0.287566
0.055440 0.906385 0.264572
0.187470 0.909154 0.267983
0.319059 0.913591 0.271517
0.445725 0.936774 0.276079
0.572385 0.959973 0.280675
0.699039 0.983190 0.285306
0.825687 1.000000 0.289971
0.952330 1.000000 0.294671
1.000000 1.000000 0.299131
0.000000 0.000000 0.314250
0.112123 0.000000 0.316776
0.244355 0.000000 0.319336
0.376580 0.000000 0.321932
0.508798 0.000000 0.324562
0.641009 0.000000 0.327226
0.773213 0.000000 0.329926
0.905410 0.000000 0.332660
1.000000 0.000000 0.335429
0.000000 0.103443 0.322465
0.117936 0.105620 0.325102
0.250145 0.107819 0.327774
0.382348 0.110039 0.330480
0.514543 0.112280 0.333222
0.646732 0.114543 0.335998
0.778913 0.116827 0.338808
0.911087 0.119132 0.341654
1.000000 0.121459 0.344534
0.000000 0.234694 0.331036
0.123676 0.236940 0.333785
0.255863 0.239207 0.336568
0.388043 0.241495 0.339386
0.520216 0.243805 0.342238
0.652382 0.246136 0.345125
0.784540 0.248488 0.348047
0.916692 0.250862 0.351004
1.000000 0.253257 0.353995
0.000000 0.362014 0.339744
0.130412 0.364415 0.342608
0.262553 0.366838 0.345507
0.393666 0.373171 0.348647
0.525816 0.375549 0.351611
0.657959 0.377948 0.354609
0.790095 0.380369 0.357643
0.922224 0.382811 0.360711
1.000000 0.385275 0.363813
0.008973 0.474314 0.348000
0.141097 0.476790 0.350976
0.273214 0.479289 0.353986
0.403619 0.488298 0.357376
0.531344 0.507512 0.361340
0.663465 0.509980 0.364450
0.795578 0.512469 0.367595
0.927685 0.514980 0.370774
1.000000 0.517512 0.373988
0.019604 0.586855 0.356613
0.151704 0.589406 0.359700
0.283797 0.591980 0.362823
0.414365 0.600353 0.366286
0.541080 0.623395 0.370561
0.668898 0.642230 0.374647
0.800988 0.644788 0.377903
0.933072 0.647367 0.381193
1.000000 0.649968 0.384518
0.030158 0.699637 0.365584
0.162233 0.702263 0.368783
0.294301 0.704912 0.372017
0.425050 0.712580 0.375550
0.551746 0.735676 0.379936
0.678436 0.758790 0.384356
0.806326 0.777326 0.388568
0.938388 0.779974 0.391969
1.000000 0.782643 0.395406
0.040633 0.812659 0.374912
0.172685 0.815361 0.378223
0.304728 0.818085 0.381568
0.435675 0.824980 0.385168
0.562352 0.848131 0.389665
0.689024 0.871298 0.394196
0.815689 0.894482 0.398761
0.943631 0.912800 0.403102
1.000000 0.915537 0.406649
0.051031 0.925923 0.384598
0.183058 0.928700 0.388020
0.315077 0.931500 0.391477
0.446240 0.937553 0.395141
0.572898 0.960758 0.399747
0.699551 0.983979 0.404389
0.826197 1.000000 0.409065
0.952838 1.000000 0.413775
1.000000 1.000000 0.418249
0.000000 0.000000 0.433012
0.112684 0.000000 0.435549
0.244913 0.000000 0.438120
0.377136 0.000000 0.440726
0.509352 0.000000 0.443367
0.641561 0.000000 0.446042
0.773763 0.000000 0.448752
0.905957 0.000000 0.451497
1.000000 0.000000 0.454277
0.000000 0.104110 0.441261
0.118489 0.106294 0.443909
0.250697 0.108499 0.446592
0.382897 0.110725 0.449309
0.515090 0.112973 0.452061
0.647277 0.115242 0.454848
0.779456 0.117533 0.457669
0.911628 0.119845 0.460525
1.000000 0.122178 0.463416
0.000000 0.235382 0.449867
0.124223 0.237634 0.452626
0.256408 0.239908 0.455420
0.388585 0.242202 0.458248
0.520756 0.244519 0.461112
0.652920 0.246856 0.464009
0.785076 0.249215 0.466942
0.917226 0.251596 0.469909
1.000000 0.253997 0.472911
0.000000 0.366873 0.458829
0.129884 0.369194 0.461700
0.262046 0.371536 0.464604
0.394201 0.373899 0.467544
0.526349 0.376284 0.470519
0.658490 0.378690 0.473528
0.790624 0.381117 0.476572
0.922751 0.383566 0.479650
1.000000 0.386036 0.482764
0.004592 0.493762 0.467892
0.136714 0.496245 0.470878
0.268829 0.498752 0.473900
0.400935 0.501281 0.476956
0.531870 0.508268 0.480282
0.663989 0.510742 0.483403
0.796100 0.513238 0.486558
0.928204 0.515755 0.489748
1.000000 0.518294 0.492972
0.015217 0.606326 0.476539
0.147314 0.608884 0.479638
0.279404 0.611466 0.482771
0.411486 0.614071 0.485938
0.541610 0.624131 0.489535
0.669415 0.643014 0.493634
0.801504 0.645578 0.496900
0.933585 0.648164 0.500201
1.000000 0.650771 0.503537
0.025763 0.719131 0.485545
0.157836 0.721764 0.488754
0.289901 0.724421 0.491999
0.421959 0.727102 0.495278
0.552270 0.736429 0.498944
0.678959 0.759548 0.503375
0.806835 0.778138 0.507599
0.938894 0.780792 0.511011
1.000000 0.783467 0.514458
0.036231 0.832177 0.494907
0.168279 0.834886 0.498229
0.300321 0.837618 0.501585
0.432354 0.840373 0.504976
0.562871 0.848900 0.508706
0.689540 0.872073 0.513248
0.816204 0.895262 0.517824
0.944130 0.913639 0.522178
1.000000 0.916382 0.525736
0.046621 0.945464 0.504627
0.178645 0.948248 0.508060
0.310662 0.951055 0.511528
0.442671 0.953885 0.515031
0.573411 0.961544 0.518823
0.700062 0.984771 0.523475
0.826706 1.000000 0.528161
0.953345 1.000000 0.532882
1.000000 1.000000 0.537371
0.000000 0.000000 0.551778
0.113243 0.000000 0.554325
0.245471 0.000000 0.556907
0.377692 0.000000 0.559524
0.509906 0.000000 0.562175
0.642112 0.000000 0.564861
0.774312 0.000000 0.567582
0.906504 0.000000 0.570337
1.000000 0.000000 0.573128
0.000000 0.104778 0.560061
0.119042 0.106969 0.562720
0.251248 0.109181 0.565413
0.383446 0.111414 0.568141
0.515637 0.113668 0.570903
0.647821 0.115944 0.573701
0.779998 0.118241 0.576533
0.912168 0.120559 0.579400
1.000000 0.122899 0.582301
0.000000 0.236071 0.568701
0.124769 0.238330 0.571471
0.256952 0.240610 0.574275
0.389127 0.242912 0.577114
0.521296 0.245235 0.579988
0.653457 0.247579 0.582897
0.785611 0.249945 0.585840
0.917759 0.252331 0.588818
1.000000 0.254740 0.591831
0.000000 0.367584 0.577697
0.130423 0.369911 0.580578
0.262583 0.372260 0.583494
0.394736 0.374629 0.586444
0.526882 0.377021 0.589430
0.659021 0.379433 0.592449
0.791153 0.381867 0.595504
0.923277 0.384323 0.598593
1.000000 0.386799 0.601717
0.003861 0.499315 0.587050
0.136005 0.501711 0.590042
0.268142 0.504128 0.593069
0.400273 0.506566 0.596131
0.532396 0.509026 0.599227
0.664512 0.511507 0.602358
0.796622 0.514009 0.605524
0.928724 0.516533 0.608725
1.000000 0.519078 0.611960
0.010828 0.625800 0.596469
0.142923 0.628365 0.599578
0.275011 0.630954 0.602722
0.407091 0.633566 0.605900
0.539163 0.636202 0.609114
0.669931 0.643800 0.612624
0.802018 0.646370 0.615901
0.934097 0.648963 0.619213
1.000000 0.651576 0.622559
0.021367 0.738628 0.605509
0.153437 0.741268 0.608729
0.285501 0.743932 0.611984
0.417556 0.746620 0.615274
0.549604 0.749331 0.618599
0.679481 0.760307 0.622396
0.807342 0.778951 0.626634
0.939399 0.781611 0.630057
1.000000 0.784293 0.633515
0.031827 0.851697 0.614906
0.163874 0.854413 0.618238
0.295913 0.857152 0.621605
0.427944 0.859915 0.625006
0.559967 0.862701 0.628443
0.690056 0.872849 0.632303
0.816718 0.896044 0.636890
0.944628 0.914479 0.641258
1.000000 0.917230 0.644827
0.042210 0.965007 0.624660
0.174232 0.967798 0.628104
0.306246 0.970612 0.631582
0.438253 0.973450 0.635096
0.570252 0.976311 0.638644
0.700572 0.985563 0.642565
0.827215 1.000000 0.647262
0.953852 1.000000 0.651993
1.000000 1.000000 0.656495
0.000000 0.000000 0.670547
0.113803 0.000000 0.673105
0.246028 0.000000 0.675697
0.378247 0.000000 0.678325
0.510458 0.000000 0.680987
0.642663 0.000000 0.683683
0.774860 0.000000 0.686415
0.907051 0.000000 0.689181
1.000000 0.000000 0.691982
0.000000 0.105449 0.678864
0.119595 0.107646 0.681534
0.251798 0.109864 0.684237
0.383994 0.112104 0.686976
0.516183 0.114365 0.689749
0.648365 0.116647 0.692557
0.780539 0.118951 0.695400
0.912707 0.121276 0.698277
1.000000 0.123623 0.701190
0.000000 0.236763 0.687539
0.125314 0.239029 0.690319
0.257495 0.241315 0.693134
0.389668 0.243623 0.695984
0.521835 0.245953 0.698868
0.653994 0.248304 0.701787
0.786146 0.250676 0.704741
0.918291 0.253069 0.707730
1.000000 0.255484 0.710754
0.000000 0.368297 0.696569
0.130962 0.370630 0.699461
0.263120 0.372985 0.702387
0.395270 0.375362 0.705348
0.527414 0.377760 0.708344
0.659551 0.380179 0.711374
0.791680 0.382619 0.714439
0.923803 0.385081 0.717539
1.000000 0.387565 0.720674
0.004394 0.500049 0.705956
0.136537 0.502451 0.708959
0.268672 0.504875 0.711996
0.400800 0.507320 0.715069
0.532921 0.509786 0.718176
0.665035 0.512274 0.721317
0.797142 0.514782 0.724494
0.929242 0.517313 0.727705
1.000000 0.519864 0.730951
0.009919 0.632021 0.715699
0.142039 0.634491 0.718813
0.274152 0.636983 0.721962
0.406257 0.639497 0.725146
0.538356 0.642031 0.728364
0.670447 0.644587 0.731617
0.802532 0.647165 0.734905
0.934609 0.649763 0.738227
1.000000 0.652384 0.741584
0.016970 0.758127 0.725476
0.149038 0.760775 0.728707
0.281099 0.763446 0.731973
0.413153 0.766141 0.735274
0.545198 0.768859 0.738610
0.677236 0.771600 0.741980
0.807849 0.779766 0.745672
0.939904 0.782433 0.749106
1.000000 0.785122 0.752574
0.027423 0.871219 0.734907
0.159467 0.873942 0.738250
0.291504 0.876688 0.741628
0.423533 0.879458 0.745040
0.555554 0.882252 0.748487
0.687568 0.885068 0.751969
0.817232 0.896827 0.755959
0.945126 0.915322 0.760341
1.000000 0.918079 0.763920
0.037798 0.984552 0.744696
0.169818 0.987350 0.748151
0.301830 0.990172 0.751640
0.433834 0.993017 0.755164
0.565831 0.995885 0.758723
0.697821 0.998777 0.762316
0.827723 1.000000 0.766365
0.954358 1.000000 0.771107
1.000000 1.000000 0.775623
0.000000 0.000000 0.789319
0.114361 0.000000 0.791888
0.246585 0.000000 0.794491
0.378801 0.000000 0.797129
0.511011 0.000000 0.799802
0.643213 0.000000 0.802509
0.775408 0.000000 0.805251
0.907596 0.000000 0.808028
1.000000 0.000000 0.810840
0.000000 0.106122 0.797671
0.120146 0.108325 0.800351
0.252347 0.110550 0.803065
0.384541 0.112796 0.805814
0.516728 0.115064 0.808598
0.648908 0.117353 0.811417
0.781080 0.119663 0.814270
0.913246 0.121995 0.817158
1.000000 0.124348 0.820081
0.000000 0.237457 0.806379
0.125859 0.239729 0.809170
0.258037 0.242022 0.811996
0.390209 0.244337 0.814856
0.522373 0.246673 0.817752
0.654530 0.249030 0.820681
0.786680 0.251409 0.823646
0.918823 0.253809 0.826645
1.000000 0.256230 0.829680
0.000000 0.369011 0.815444
0.131500 0.371352 0.818346
0.263655 0.373713 0.821283
0.395804 0.376096 0.824255
0.527945 0.378501 0.827261
0.660080 0.380927 0.830302
0.792207 0.383374 0.833378
0.924328 0.385842 0.836489
1.000000 0.388332 0.839634
0.004927 0.500785 0.824865
0.137067 0.503194 0.827878
0.269201 0.505624 0.830927
0.401327 0.508075 0.834010
0.533445 0.510548 0.837127
0.665557 0.513042 0.840280
0.797662 0.515558 0.843467
0.929760 0.518095 0.846689
1.000000 0.520653 0.849945
0.010445 0.632778 0.834642
0.142563 0.635255 0.837767
0.274673 0.637753 0.840927
0.406777 0.640273 0.844121
0.538873 0.642814 0.847350
0.670962 0.645377 0.850613
0.803045 0.647961 0.853912
0.935120 0.650566 0.857245
1.000000 0.653193 0.860613
0.015891 0.764989 0.844776
0.147986 0.767535 0.848012
0.280074 0.770102 0.851283
0.412155 0.772690 0.854589
0.544229 0.775300 0.857929
0.676295 0.777931 0.861304
0.808355 0.780583 0.864713
0.940407 0.783257 0.868158
1.000000 0.785952 0.871637
0.023018 0.890743 0.854912
0.155060 0.893473 0.858266
0.287094 0.896227 0.861654
0.419121 0.899004 0.865077
0.551140 0.901805 0.868535
0.683151 0.904629 0.872028
0.815155 0.907476 0.875556
0.945623 0.916167 0.879427
1.000000 0.918931 0.883017
0.033385 1.000000 0.864736
0.165403 1.000000 0.868201
0.297413 1.000000 0.871700
0.429415 1.000000 0.875235
0.561410 1.000000 0.878805
0.693397 1.000000 0.882409
0.825376 1.000000 0.886048
0.954864 1.000000 0.890224
1.000000 1.000000 0.894754
0.000000 0.000000 0.908095
0.114919 0.000000 0.910674
0.247141 0.000000 0.913288
0.379355 0.000000 0.915936
0.511562 0.000000 0.918620
0.643762 0.000000 0.921338
0.775955 0.000000 0.924091
0.908141 0.000000 0.926878
1.000000 0.000000 0.929700
0.000000 0.106797 0.916481
0.120697 0.109007 0.919171
0.252896 0.111238 0.921896
0.385088 0.113491 0.924656
0.517272 0.115765 0.927451
0.649450 0.118061 0.930280
0.781620 0.120377 0.933144
0.913784 0.122716 0.936043
1.000000 0.125075 0.938976
0.000000 0.238153 0.925223
0.126403 0.240431 0.928025
0.258579 0.242731 0.930861
0.390748 0.245052 0.933732
0.522910 0.247395 0.936638
0.655065 0.249759 0.939579
0.787213 0.252144 0.942554
0.919354 0.254551 0.945564
1.000000 0.256979 0.948609
0.000000 0.369728 0.934322
0.132037 0.372075 0.937235
0.264190 0.374443 0.940182
0.396337 0.376833 0.943165
0.528476 0.379244 0.946182
0.660608 0.381676 0.949234
0.792734 0.384130 0.952320
0.924852 0.386605 0.955442
1.000000 0.389101 0.958598
0.005460 0.501523 0.943777
0.137598 0.503938 0.946801
0.269729 0.506375 0.949860
0.401852 0.508833 0.952954
0.533969 0.511312 0.956082
0.666079 0.513813 0.959245
0.798182 0.516335 0.962443
0.930277 0.518878 0.965676
1.000000 0.521443 0.968943
0.010971 0.633536 0.953589
0.143086 0.636020 0.956724
0.275195 0.638525 0.959894
0.407296 0.641052 0.963099
0.539390 0.643599 0.966339
0.671477 0.646169 0.969613
0.803557 0.648759 0.972922
0.935630 0.651371 0.976266
1.000000 0.654004 0.979645
0.016410 0.765769 0.963757
0.148502 0.768322 0.967004
0.280588 0.770895 0.970285
0.412667 0.773490 0.973601
0.544738 0.776106 0.976952
0.676803 0.778744 0.980338
0.808860 0.781403 0.983758
0.940911 0.784083 0.987213
1.000000 0.786785 0.990703
0.021776 0.898222 0.974281
0.153846 0.900842 0.977639
0.285909 0.903484 0.981032
0.417965 0.906147 0.984459
0.550014 0.908832 0.987922
0.682056 0.911538 0.991418
0.814091 0.914265 0.994950
0.946119 0.917014 0.998516
1.000000 0.919784 1.000000
0.028972 1.000000 0.984778
0.160987 1.000000 0.988254
0.292995 1.000000 0.991764
0.424995 1.000000 0.995310
0.556987 1.000000 0.998890
0.688972 1.000000 1.000000
0.820949 1.000000 1.000000
0.952918 1.000000 1.000000
1.000000 1.000000 1.000000
