luts/kodak-warm.cube
TITLE "Kodak Warm"
LUT_3D_SIZE 33
DOMAIN_MIN 0.0 0.0 0.0
DOMAIN_MAX 1.0 1.0 1.0
0.000000 0.000000 0.000000
0.011254 0.000000 0.000000
0.044315 0.000000 0.000000
0.077376 0.000000 0.000000
0.110437 0.000000 0.000000
0.143497 0.000000 0.000000
0.176557 0.000000 0.000000
0.209617 0.000000 0.000000
0.242676 0.000000 0.000000
0.275734 0.000000 0.000000
0.308792 0.000000 0.000000
0.341850 0.000000 0.000000
0.374907 0.000000 0.000000
0.407964 0.000000 0.000000
0.441020 0.000000 0.000000
0.474076 0.000000 0.000000
0.507132 0.000000 0.000000
0.540187 0.000000 0.000000
0.573241 0.000000 0.000000
0.606295 0.000000 0.000000
0.639349 0.000000 0.000000
0.672402 0.000000 0.000000
0.705455 0.000000 0.000000
0.738508 0.000000 0.000000
0.771560 0.000000 0.000000
0.804611 0.000000 0.000000
0.837662 0.000000 0.000000
0.870713 0.000000 0.000000
0.903763 0.000000 0.000000
0.936813 0.000000 0.000000
0.969862 0.000000 0.000000
1.000000 0.000000 0.000000
1.000000 0.000000 0.000000
0.000000 0.000000 0.000000
0.012723 0.003732 0.000000
0.045783 0.004258 0.000000
0.078843 0.004786 0.000000
0.111902 0.005314 0.000000
0.144961 0.005844 0.000000
0.178020 0.006375 0.000000
0.211078 0.006908 0.000000
0.244135 0.007442 0.000000
0.277192 0.007977 0.000000
0.310249 0.008514 0.000000
0.343305 0.009051 0.000000
0.376361 0.009591 0.000000
0.409417 0.010131 0.000000
0.442471 0.010673 0.000000
0.475526 0.011216 0.000000
0.508580 0.011761 0.000000
0.541634 0.012307 0.000000
0.574687 0.012854 0.000000
0.607740 0.013403 0.000000
0.640792 0.013953 0.000000
0.673844 0.014504 0.000000
0.706895 0.015056 0.000000
0.739946 0.015610 0.000000
0.772997 0.016166 0.000000
0.806047 0.016722 0.000000
0.839096 0.017280 0.000000
0.872145 0.017839 0.000000
0.905194 0.018400 0.000000
0.938243 0.018962 0.000000
0.971290 0.019525 0.000000
1.000000 0.020090 0.000000
1.000000 0.020656 0.000000
0.000000 0.027260 0.000000
0.015115 0.032942 0.000000
0.047247 0.037002 0.000000
0.080305 0.037534 0.000000
0.113363 0.038067 0.000000
0.146420 0.038601 0.000000
0.179478 0.039136 0.000000
0.212534 0.039673 0.000000
0.245590 0.040211 0.000000
0.278646 0.040751 0.000000
0.311701 0.041292 0.000000
0.344756 0.041834 0.000000
0.377811 0.042377 0.000000
0.410865 0.042922 0.000000
0.443918 0.043468 0.000000
0.476971 0.044016 0.000000
0.510024 0.044565 0.000000
0.543076 0.045115 0.000000
0.576128 0.045666 0.000000
0.609179 0.046219 0.000000
0.642230 0.046773 0.000000
0.675280 0.047329 0.000000
0.708330 0.047886 0.000000
0.741380 0.048444 0.000000
0.774429 0.049004 0.000000
0.807478 0.049564 0.000000
0.840526 0.050127 0.000000
0.873574 0.050690 0.000000
0.906621 0.051255 0.000000
0.939668 0.051821 0.000000
0.972714 0.052389 0.000000
1.000000 0.052958 0.000000
1.000000 0.053528 0.000000
0.000000 0.055053 0.000000
0.017877 0.060738 0.000000
0.049581 0.066425 0.000000
0.081763 0.070296 0.000000
0.114819 0.070833 0.000000
0.147875 0.071371 0.000000
0.180931 0.071911 0.000000
0.213986 0.072452 0.000000
0.247041 0.072994 0.000000
0.280095 0.073538 0.000000
0.313149 0.074083 0.000000
0.346202 0.074630 0.000000
0.379255 0.075178 0.000000
0.412308 0.075727 0.000000
0.445360 0.076277 0.000000
0.478412 0.076829 0.000000
0.511463 0.077382 0.000000
0.544514 0.077937 0.000000
0.577564 0.078492 0.000000
0.610614 0.079050 0.000000
0.643663 0.079608 0.000000
0.676712 0.080168 0.000000
0.709761 0.080729 0.000000
0.742809 0.081291 0.000000
0.775857 0.081855 0.000000
0.808904 0.082420 0.000000
0.841951 0.082987 0.000000
0.874997 0.083555 0.000000
0.908043 0.084124 0.000000
0.941089 0.084694 0.000000
0.974134 0.085266 0.000000
1.000000 0.085839 0.000000
1.000000 0.086414 0.000000
0.000000 0.082857 0.000000
0.020635 0.088546 0.000000
0.052339 0.094235 0.000000
0.084042 0.099926 0.000000
0.116271 0.103613 0.000000
0.149325 0.104155 0.000000
0.182380 0.104699 0.000000
0.215433 0.105245 0.000000
0.248487 0.105791 0.000000
0.281540 0.106340 0.000000
0.314592 0.106889 0.000000
0.347644 0.107440 0.000000
0.380696 0.107992 0.000000
0.413747 0.108545 0.000000
0.446798 0.109100 0.000000
0.479848 0.109656 0.000000
0.512898 0.110213 0.000000
0.545947 0.110772 0.000000
0.578996 0.111332 0.000000
0.612044 0.111894 0.000000
0.645093 0.112456 0.000000
0.678140 0.113020 0.000000
0.711187 0.113586 0.000000
0.744234 0.114153 0.000000
0.777280 0.114721 0.000000
0.810326 0.115290 0.000000
0.843372 0.115861 0.000000
0.876417 0.116433 0.000000
0.909461 0.117006 0.000000
0.942505 0.117581 0.000000
0.975549 0.118157 0.000000
1.000000 0.118735 0.000000
1.000000 0.119313 0.000000
0.000000 0.110672 0.000000
0.023390 0.116364 0.000000
0.055092 0.122057 0.000000
0.086794 0.127751 0.000000
0.118495 0.133446 0.000000
0.150771 0.136953 0.000000
0.183824 0.137501 0.000000
0.216876 0.138051 0.000000
0.249928 0.138602 0.000000
0.282980 0.139154 0.000000
0.316031 0.139708 0.000000
0.349081 0.140263 0.000000
0.382132 0.140819 0.000000
0.415181 0.141377 0.000000
0.448231 0.141936 0.000000
0.481279 0.142497 0.000000
0.514328 0.143058 0.000000
0.547376 0.143621 0.000000
0.580423 0.144186 0.000000
0.613470 0.144751 0.000000
0.646517 0.145318 0.000000
0.679563 0.145887 0.000000
0.712609 0.146456 0.000000
0.745654 0.147027 0.000000
0.778699 0.147600 0.000000
0.811744 0.148173 0.000000
0.844788 0.148748 0.000000
0.877831 0.149325 0.000000
0.910874 0.149903 0.000000
0.943917 0.150482 0.000000
0.976959 0.151062 0.000000
1.000000 0.151644 0.000000
1.000000 0.152227 0.000000
0.000000 0.138497 0.000000
0.026140 0.144193 0.000000
0.057841 0.149889 0.000000
0.089542 0.155586 0.000000
0.121242 0.161285 0.000000
0.152942 0.166984 0.000000
0.185264 0.170317 0.000000
0.218315 0.170871 0.000000
0.251365 0.171426 0.000000
0.284415 0.171983 0.000000
0.317465 0.172541 0.000000
0.350514 0.173100 0.000000
0.383563 0.173661 0.000000
0.416611 0.174223 0.000000
0.449659 0.174786 0.000000
0.482706 0.175351 0.000000
0.515753 0.175917 0.000000
0.548800 0.176484 0.000000
0.581846 0.177053 0.000000
0.614892 0.177623 0.000000
0.647937 0.178194 0.000000
0.680982 0.178767 0.000000
0.714026 0.179341 0.000000
0.747070 0.179916 0.000000
0.780114 0.180492 0.000000
0.813157 0.181070 0.000000
0.846199 0.181650 0.000000
0.879241 0.182230 0.000000
0.912283 0.182812 0.000000
0.945324 0.183396 0.000000
0.978365 0.183980 0.000000
1.000000 0.184566 0.000000
1.000000 0.185154 0.000000
0.000000 0.166333 0.000000
0.028887 0.172032 0.000000
0.060587 0.177732 0.000000
0.092287 0.183433 0.000000
0.123986 0.189134 0.000000
0.155685 0.194837 0.000000
0.187383 0.200541 0.000000
0.219749 0.203705 0.000000
0.252798 0.204264 0.000000
0.285846 0.204825 0.000000
0.318895 0.205388 0.000000
0.351942 0.205951 0.000000
0.384990 0.206516 0.000000
0.418037 0.207082 0.000000
0.451083 0.207650 0.000000
0.484129 0.208219 0.000000
0.517175 0.208789 0.000000
0.550220 0.209361 0.000000
0.583264 0.209933 0.000000
0.616309 0.210508 0.000000
0.649353 0.211083 0.000000
0.682396 0.211660 0.000000
0.715439 0.212238 0.000000
0.748481 0.212818 0.000000
0.781523 0.213399 0.000000
0.814565 0.213981 0.000000
0.847606 0.214565 0.000000
0.880647 0.215150 0.000000
0.913687 0.215736 0.000000
0.946727 0.216324 0.000000
0.979766 0.216912 0.000000
1.000000 0.217503 0.000000
1.000000 0.218094 0.000000
0.000000 0.194181 0.000000
0.031631 0.199883 0.000000
0.063329 0.205586 0.000000
0.095028 0.211290 0.000000
0.126726 0.216995 0.000000
0.158423 0.222701 0.000000
0.190120 0.228409 0.000000
0.221817 0.234117 0.000000
0.254226 0.237116 0.000000
0.287273 0.237681 0.000000
0.320320 0.238248 0.000000
0.353366 0.238816 0.000000
0.386412 0.239385 0.000000
0.419457 0.239955 0.000000
0.452502 0.240527 0.000000
0.485547 0.241100 0.000000
0.518591 0.241675 0.000000
0.551635 0.242251 0.000000
0.584678 0.242828 0.000000
0.617721 0.243406 0.000000
0.650763 0.243986 0.000000
0.683805 0.244568 0.000000
0.716847 0.245150 0.000000
0.749888 0.245734 0.000000
0.782929 0.246319 0.000000
0.815969 0.246906 0.000000
0.849009 0.247493 0.000000
0.882048 0.248083 0.000000
0.915087 0.248673 0.000000
0.948125 0.249265 0.000000
0.981163 0.249858 0.000000
1.000000 0.250453 0.000000
1.000000 0.251049 0.000000
0.002672 0.222038 0.000000
0.034370 0.227744 0.000000
0.066068 0.233450 0.000000
0.097765 0.239158 0.000000
0.129462 0.244866 0.000000
0.161158 0.250576 0.000000
0.192854 0.256287 0.000000
0.224550 0.261998 0.000000
0.256245 0.267711 0.000000
0.288695 0.270551 0.000000
0.321740 0.271122 0.000000
0.354785 0.271694 0.000000
0.387830 0.272267 0.000000
0.420874 0.272842 0.000000
0.453917 0.273418 0.000000
0.486961 0.273996 0.000000
0.520003 0.274575 0.000000
0.553046 0.275155 0.000000
0.586087 0.275736 0.000000
0.619129 0.276319 0.000000
0.652170 0.276903 0.000000
0.685210 0.277489 0.000000
0.718251 0.278075 0.000000
0.751290 0.278664 0.000000
0.784329 0.279253 0.000000
0.817368 0.279844 0.000000
0.850407 0.280436 0.000000
0.883444 0.281029 0.000000
0.916482 0.281624 0.000000
0.949519 0.282220 0.000000
0.982556 0.282818 0.000000
1.000000 0.283417 0.000000
1.000000 0.284017 0.000000
0.005409 0.249907 0.000000
0.037106 0.255616 0.000000
0.068802 0.261326 0.000000
0.100498 0.267037 0.000000
0.132194 0.272749 0.000000
0.163889 0.278462 0.000000
0.195584 0.284176 0.000000
0.227278 0.289891 0.000000
0.258973 0.295607 0.000000
0.290666 0.301324 0.000000
0.323156 0.304010 0.000000
0.356200 0.304586 0.000000
0.389243 0.305164 0.000000
0.422285 0.305743 0.000000
0.455328 0.306323 0.000000
0.488369 0.306905 0.000000
0.521411 0.307488 0.000000
0.554452 0.308072 0.000000
0.587492 0.308658 0.000000
0.620532 0.309245 0.000000
0.653572 0.309834 0.000000
0.686611 0.310423 0.000000
0.719650 0.311014 0.000000
0.752688 0.311607 0.000000
0.785726 0.312201 0.000000
0.818763 0.312796 0.000000
0.851800 0.313392 0.000000
0.884836 0.313990 0.000000
0.917873 0.314589 0.000000
0.950908 0.315189 0.000000
0.983943 0.315791 0.000568
1.000000 0.316394 0.001323
1.000000 0.316999 0.002080
0.008142 0.277787 0.000000
0.039838 0.283499 0.000000
0.071533 0.289212 0.000000
0.103228 0.294926 0.000000
0.134922 0.300642 0.000000
0.166616 0.306358 0.000000
0.198310 0.312075 0.000000
0.230003 0.317794 0.000000
0.261696 0.323513 0.000000
0.293389 0.329234 0.000000
0.325081 0.334956 0.000000
0.357610 0.337492 0.000000
0.390651 0.338074 0.000000
0.423693 0.338657 0.000000
0.456734 0.339242 0.000000
0.489774 0.339828 0.000000
0.522814 0.340415 0.000000
0.555853 0.341004 0.000000
0.588892 0.341594 0.000000
0.621931 0.342185 0.000000
0.654969 0.342778 0.000000
0.688007 0.343372 0.000000
0.721044 0.343967 0.000000
0.754081 0.344564 0.000000
0.787117 0.345162 0.000000
0.820153 0.345761 0.000000
0.853189 0.346362 0.000000
0.886224 0.346964 0.000722
0.919259 0.347567 0.001477
0.952293 0.348172 0.002234
0.985327 0.348778 0.002994
1.000000 0.349385 0.003756
1.000000 0.349994 0.004520
0.010871 0.305677 0.000000
0.042566 0.311393 0.000000
0.074260 0.317109 0.000000
0.105953 0.322827 0.000000
0.137647 0.328545 0.000000
0.169340 0.334265 0.000000
0.201032 0.339986 0.000000
0.232724 0.345708 0.000000
0.264416 0.351431 0.000000
0.296108 0.357155 0.000000
0.327799 0.362880 0.000000
0.359489 0.368606 0.000000
0.392056 0.370997 0.000000
0.425095 0.371585 0.000000
0.458135 0.372174 0.000000
0.491174 0.372764 0.000000
0.524212 0.373356 0.000000
0.557250 0.373949 0.000000
0.590288 0.374543 0.000000
0.623325 0.375139 0.000000
0.656362 0.375736 0.000000
0.689398 0.376334 0.000000
0.722434 0.376934 0.000000
0.755470 0.377534 0.000122
0.788505 0.378137 0.000875
0.821539 0.378740 0.001631
0.854573 0.379345 0.002389
0.887607 0.379952 0.003149
0.920640 0.380559 0.003911
0.953673 0.381168 0.004676
0.986705 0.381779 0.005442
1.000000 0.382390 0.006211
1.000000 0.383003 0.006982
0.013597 0.333578 0.000000
0.045290 0.339297 0.000000
0.076983 0.345017 0.000000
0.108676 0.350738 0.000000
0.140368 0.356460 0.000000
0.172059 0.362183 0.000000
0.203751 0.367907 0.000000
0.235442 0.373633 0.000000
0.267132 0.379359 0.000000
0.298823 0.385086 0.000000
0.330512 0.390815 0.000000
0.362202 0.396544 0.000000
0.393891 0.402275 0.000000
0.426494 0.404527 0.000000
0.459532 0.405120 0.000000
0.492569 0.405714 0.000000
0.525606 0.406310 0.000000
0.558643 0.406907 0.000000
0.591679 0.407506 0.000000
0.624715 0.408106 0.000000
0.657750 0.408707 0.000275
0.690785 0.409310 0.001029
0.723820 0.409914 0.001786
0.756854 0.410519 0.002544
0.789887 0.411125 0.003304
0.822920 0.411733 0.004067
0.855953 0.412343 0.004832
0.888985 0.412953 0.005599
0.922017 0.413565 0.006368
0.955049 0.414178 0.007139
0.988079 0.414793 0.007913
1.000000 0.415409 0.008689
1.000000 0.416026 0.009467
0.016319 0.361490 0.000000
0.048011 0.367212 0.000000
0.079702 0.372936 0.000000
0.111394 0.378660 0.000000
0.143085 0.384386 0.000000
0.174775 0.390112 0.000000
0.206465 0.395840 0.000000
0.238155 0.401568 0.000000
0.269845 0.407298 0.000000
0.301534 0.413029 0.000000
0.333222 0.418760 0.000000
0.364911 0.424493 0.000000
0.396599 0.430227 0.000000
0.428286 0.435962 0.000000
0.460924 0.438079 0.000000
0.493960 0.438678 0.000000
0.526996 0.439278 0.000000
0.560031 0.439880 0.000429
0.593066 0.440483 0.001183
0.626100 0.441087 0.001940
0.659134 0.441692 0.002699
0.692168 0.442299 0.003460
0.725201 0.442907 0.004223
0.758233 0.443517 0.004988
0.791265 0.444128 0.005756
0.824297 0.444740 0.006525
0.857328 0.445354 0.007297
0.890359 0.445968 0.008071
0.923390 0.446585 0.008847
0.956420 0.447202 0.009625
0.989449 0.447821 0.010406
1.000000 0.448441 0.011189
1.000000 0.449063 0.011973
0.019037 0.389413 0.000000
0.050728 0.395138 0.000000
0.082418 0.400865 0.000000
0.114108 0.406593 0.000000
0.145798 0.412322 0.000000
0.177487 0.418052 0.000000
0.209176 0.423783 0.000000
0.240865 0.429515 0.000000
0.272553 0.435248 0.000000
0.304241 0.440982 0.000000
0.335929 0.446717 0.000000
0.367616 0.452453 0.000000
0.399303 0.458190 0.000000
0.430989 0.463929 0.000000
0.462675 0.469668 0.000509
0.495346 0.471656 0.001337
0.528381 0.472260 0.002094
0.561415 0.472866 0.002854
0.594448 0.473473 0.003615
0.627481 0.474082 0.004379
0.660513 0.474691 0.005144
0.693545 0.475302 0.005912
0.726577 0.475915 0.006682
0.759608 0.476529 0.007455
0.792639 0.477144 0.008229
0.825669 0.477760 0.009006
0.858699 0.478378 0.009784
0.891729 0.478997 0.010565
0.924758 0.479618 0.011348
0.957786 0.480240 0.012134
0.990814 0.480863 0.012921
1.000000 0.481487 0.013711
1.000000 0.482113 0.014503
0.021751 0.417346 0.000000
0.053441 0.423075 0.000000
0.085130 0.428806 0.000000
0.116819 0.434537 0.000000
0.148508 0.440269 0.000000
0.180196 0.446002 0.000000
0.211884 0.451736 0.000000
0.243571 0.457472 0.000000
0.275258 0.463208 0.000000
0.306945 0.468946 0.000000
0.338631 0.474684 0.000000
0.370317 0.480424 0.000000
0.402003 0.486164 0.000607
0.433688 0.491906 0.001637
0.465373 0.497649 0.002670
0.497058 0.503393 0.003704
0.529761 0.505256 0.004535
0.562793 0.505866 0.005301
0.595825 0.506477 0.006069
0.628857 0.507090 0.006840
0.661888 0.507704 0.007612
0.694919 0.508319 0.008387
0.727949 0.508936 0.009164
0.760979 0.509554 0.009943
0.794008 0.510174 0.010725
0.827037 0.510794 0.011508
0.860066 0.511416 0.012294
0.893094 0.512040 0.013082
0.926121 0.512665 0.013872
0.959148 0.513291 0.014664
0.992175 0.513918 0.015459
1.000000 0.514547 0.016255
1.000000 0.515177 0.017054
0.024462 0.445291 0.000000
0.056150 0.451023 0.000000
0.087838 0.456757 0.000000
0.119526 0.462491 0.000000
0.151213 0.468227 0.000000
0.182900 0.473963 0.000000
0.214587 0.479701 0.000000
0.246273 0.485440 0.000000
0.277959 0.491180 0.000000
0.309645 0.496920 0.000000
0.341330 0.502662 0.000709
0.373015 0.508405 0.001742
0.404699 0.514149 0.002776
0.436383 0.519894 0.003813
0.468067 0.525641 0.004852
0.499750 0.531388 0.005894
0.531433 0.537136 0.006937
0.564168 0.538879 0.007770
0.597199 0.539495 0.008545
0.630229 0.540112 0.009323
0.663258 0.540730 0.010103
0.696288 0.541350 0.010884
0.729316 0.541971 0.011668
0.762345 0.542593 0.012454
0.795373 0.543217 0.013243
0.828400 0.543842 0.014033
0.861427 0.544468 0.014826
0.894454 0.545096 0.015621
0.927480 0.545725 0.016418
0.960506 0.546356 0.017217
0.993531 0.546987 0.018018
1.000000 0.547620 0.018822
1.000000 0.548255 0.019628
0.027168 0.473246 0.000000
0.058856 0.478982 0.000000
0.090543 0.484719 0.000000
0.122229 0.490457 0.000000
0.153915 0.496195 0.000000
0.185601 0.501935 0.000000
0.217287 0.507677 0.000000
0.248972 0.513419 0.000000
0.280657 0.519162 0.000814
0.312341 0.524906 0.001849
0.344025 0.530651 0.002886
0.375709 0.536398 0.003926
0.407392 0.542145 0.004967
0.439075 0.547894 0.006011
0.470757 0.553643 0.007057
0.502440 0.559394 0.008105
0.534121 0.565145 0.009156
0.565803 0.570898 0.010208
0.598567 0.572527 0.011044
0.631596 0.573148 0.011828
0.664624 0.573770 0.012615
0.697652 0.574394 0.013404
0.730679 0.575020 0.014195
0.763706 0.575646 0.014988
0.796733 0.576274 0.015783
0.829759 0.576904 0.016581
0.862784 0.577534 0.017380
0.895810 0.578166 0.018182
0.928834 0.578799 0.018986
0.961859 0.579434 0.019792
0.994883 0.580070 0.020600
1.000000 0.580707 0.021411
1.000000 0.581346 0.022223
0.029871 0.501212 0.000000
0.061557 0.506951 0.000000
0.093243 0.512691 0.000000
0.124929 0.518433 0.000000
0.156614 0.524175 0.000000
0.188298 0.529918 0.000000
0.219983 0.535663 0.000921
0.251667 0.541408 0.001959
0.283350 0.547155 0.002999
0.315033 0.552902 0.004041
0.346716 0.558651 0.005086
0.378399 0.564401 0.006132
0.410081 0.570152 0.007181
0.441762 0.575903 0.008231
0.473444 0.581656 0.009284
0.505125 0.587410 0.010339
0.536806 0.593165 0.011397
0.568486 0.598921 0.012456
0.600166 0.604678 0.013517
0.632958 0.606197 0.014356
0.665985 0.606824 0.015150
0.699012 0.607452 0.015946
0.732038 0.608082 0.016743
0.765063 0.608713 0.017543
0.798088 0.609345 0.018346
0.831113 0.609979 0.019150
0.864137 0.610614 0.019957
0.897161 0.611250 0.020765
0.930184 0.611887 0.021576
0.963207 0.612526 0.022389
0.996230 0.613167 0.023205
1.000000 0.613808 0.024022
1.000000 0.614451 0.024842
0.032570 0.529189 0.000000
0.064255 0.534931 0.000000
0.095940 0.540675 0.000000
0.127624 0.546420 0.000000
0.159308 0.552165 0.001032
0.190992 0.557912 0.002073
0.222675 0.563660 0.003115
0.254358 0.569409 0.004160
0.286040 0.575159 0.005207
0.317722 0.580910 0.006256
0.349404 0.586662 0.007307
0.381085 0.592415 0.008360
0.412766 0.598169 0.009416
0.444446 0.603924 0.010474
0.476127 0.609680 0.011533
0.507806 0.615438 0.012595
0.539486 0.621196 0.013659
0.571165 0.626955 0.014726
0.602844 0.632716 0.015794
0.634522 0.638477 0.016865
0.667342 0.639892 0.017707
0.700367 0.640524 0.018509
0.733391 0.641158 0.019314
0.766416 0.641793 0.020121
0.799439 0.642430 0.020931
0.832463 0.643068 0.021742
0.865485 0.643707 0.022555
0.898508 0.644347 0.023371
0.931530 0.644989 0.024189
0.964551 0.645632 0.025009
0.997572 0.646277 0.025831
1.000000 0.646923 0.026656
1.000000 0.647570 0.027482
0.035266 0.557176 0.000000
0.066950 0.562922 0.000105
0.098633 0.568669 0.001146
0.130316 0.574417 0.002189
0.161999 0.580166 0.003234
0.193681 0.585917 0.004282
0.225363 0.591668 0.005331
0.257045 0.597420 0.006383
0.288726 0.603173 0.007437
0.320407 0.608928 0.008492
0.352087 0.614683 0.009551
0.383767 0.620440 0.010611
0.415447 0.626197 0.011673
0.447127 0.631956 0.012738
0.478806 0.637715 0.013805
0.510484 0.643476 0.014873
0.542163 0.649238 0.015944
0.573840 0.655000 0.017018
0.605518 0.660764 0.018093
0.637195 0.666529 0.019171
0.668872 0.672295 0.020250
0.701718 0.673610 0.021096
0.734741 0.674248 0.021908
0.767763 0.674887 0.022722
0.800786 0.675528 0.023538
0.833808 0.676170 0.024356
0.866829 0.676814 0.025176
0.899850 0.677458 0.025999
0.932870 0.678104 0.026824
0.965891 0.678752 0.027651
0.998910 0.679401 0.028480
1.000000 0.680051 0.029311
1.000000 0.680702 0.030145
0.037958 0.585175 0.001263
0.069640 0.590924 0.002309
0.101322 0.596675 0.003357
0.133004 0.602426 0.004406
0.164686 0.608178 0.005459
0.196367 0.613932 0.006513
0.228048 0.619687 0.007569
0.259728 0.625442 0.008628
0.291408 0.631199 0.009688
0.323088 0.636957 0.010751
0.354767 0.642715 0.011816
0.386446 0.648475 0.012883
0.418125 0.654236 0.013953
0.449803 0.659998 0.015024
0.481481 0.665761 0.016098
0.513158 0.671525 0.017174
0.544835 0.677290 0.018252
0.576512 0.683056 0.019332
0.608188 0.688823 0.020414
0.639864 0.694592 0.021498
0.671540 0.700361 0.022585
0.703215 0.706131 0.023674
0.736086 0.707351 0.024523
0.769107 0.707995 0.025344
0.802128 0.708640 0.026167
0.835148 0.709286 0.026992
0.868168 0.709934 0.027820
0.901188 0.710583 0.028649
0.934207 0.711234 0.029481
0.967225 0.711885 0.030315
1.000000 0.712538 0.031151
1.000000 0.713193 0.031989
1.000000 0.713848 0.032830
0.040645 0.613184 0.003482
0.072327 0.618937 0.004534
0.104008 0.624691 0.005589
0.135689 0.630445 0.006646
0.167369 0.636201 0.007705
0.199049 0.641958 0.008766
0.230729 0.647716 0.009829
0.262408 0.653475 0.010895
0.294087 0.659235 0.011962
0.325765 0.664996 0.013032
0.357443 0.670758 0.014104
0.389121 0.676522 0.015178
0.420799 0.682286 0.016254
0.452476 0.688051 0.017333
0.484152 0.693817 0.018413
0.515829 0.699585 0.019496
0.547504 0.705353 0.020581
0.579180 0.711123 0.021668
0.610855 0.716893 0.022757
0.642530 0.722665 0.023848
0.674205 0.728438 0.024942
0.705879 0.734212 0.026037
0.737552 0.739986 0.027135
0.770446 0.741116 0.027989
0.803465 0.741766 0.028819
0.836484 0.742416 0.029651
0.869503 0.743068 0.030485
0.902521 0.743722 0.031322
0.935539 0.744376 0.032161
0.968556 0.745032 0.033001
1.000000 0.745690 0.033845
1.000000 0.746348 0.034690
1.000000 0.747008 0.035537
0.043330 0.641204 0.005723
0.075010 0.646960 0.006782
0.106690 0.652717 0.007844
0.138369 0.658476 0.008908
0.170048 0.664235 0.009974
0.201727 0.669995 0.011042
0.233406 0.675756 0.012112
0.265084 0.681519 0.013184
0.296761 0.687282 0.014259
0.328439 0.693047 0.015335
0.360116 0.698812 0.016414
0.391792 0.704579 0.017495
0.423469 0.710346 0.018578
0.455144 0.716115 0.019664
0.486820 0.721885 0.020751
0.518495 0.727656 0.021841
0.550170 0.733427 0.022932
0.581844 0.739200 0.024026
0.613518 0.744974 0.025122
0.645192 0.750749 0.026220
0.676865 0.756525 0.027321
0.708538 0.762303 0.028423
0.740211 0.768081 0.029528
0.771883 0.773860 0.030635
0.804798 0.774905 0.031493
0.837816 0.775560 0.032332
0.870833 0.776216 0.033173
0.903850 0.776874 0.034017
0.936866 0.777533 0.034862
0.969882 0.778193 0.035710
1.000000 0.778855 0.036560
1.000000 0.779518 0.037412
1.000000 0.780182 0.038267
0.045971 0.669382 0.007994
0.077689 0.674995 0.009052
0.109368 0.680755 0.010121
0.141046 0.686517 0.011191
0.172724 0.692279 0.012264
0.204402 0.698043 0.013339
0.236079 0.703808 0.014416
0.267756 0.709573 0.015495
0.299432 0.715340 0.016577
0.331109 0.721108 0.017660
0.362784 0.726877 0.018746
0.394460 0.732647 0.019834
0.426135 0.738418 0.020924
0.457809 0.744190 0.022016
0.489484 0.749963 0.023111
0.521158 0.755737 0.024207
0.552831 0.761512 0.025306
0.584505 0.767289 0.026407
0.616177 0.773066 0.027510
0.647850 0.778844 0.028615
0.679522 0.784624 0.029722
0.711194 0.790404 0.030831
0.742865 0.796186 0.031943
0.774536 0.801968 0.033057
0.806207 0.807752 0.034173
0.839143 0.808717 0.035035
0.872158 0.809378 0.035883
0.905174 0.810040 0.036734
0.938189 0.810703 0.037586
0.971203 0.811368 0.038441
1.000000 0.812033 0.039298
1.000000 0.812701 0.040157
1.000000 0.813369 0.041019
0.048598 0.697613 0.010289
0.080364 0.703040 0.011344
0.112042 0.708804 0.012420
0.143719 0.714568 0.013497
0.175396 0.720334 0.014577
0.207072 0.726101 0.015659
0.238749 0.731869 0.016743
0.270424 0.737639 0.017829
0.302100 0.743409 0.018917
0.333775 0.749180 0.020008
0.365449 0.754952 0.021100
0.397123 0.760726 0.022195
0.428797 0.766500 0.023292
0.460471 0.772275 0.024391
0.492144 0.778052 0.025493
0.523817 0.783829 0.026596
0.555489 0.789608 0.027701
0.587161 0.795388 0.028809
0.618833 0.801168 0.029919
0.650504 0.806950 0.031031
0.682175 0.812733 0.032145
0.713846 0.818517 0.033262
0.745516 0.824302 0.034380
0.777186 0.830088 0.035501
0.808855 0.835875 0.036624
0.840524 0.841663 0.037749
0.873479 0.842553 0.038616
