luts/kodak-warm.cube
TITLE "Kodak Warm"
LUT_3D_SIZE 5
DOMAIN_MIN 0.0 0.0 0.0
DOMAIN_MAX 1.0 1.0 1.0
0.000000 0.000000 0.000000
0.242676 0.000000 0.000000
0.507132 0.000000 0.000000
0.771560 0.000000 0.000000
1.000000 0.000000 0.000000
0.000000 0.194181 0.000000
0.254226 0.237116 0.000000
0.518591 0.241675 0.000000
0.782929 0.246319 0.000000
1.000000 0.251049 0.000000
0.021751 0.417346 0.000000
0.275258 0.463208 0.000000
0.529761 0.505256 0.004535
0.794008 0.510174 0.010725
1.000000 0.515177 0.017054
0.043330 0.641204 0.005723
0.296761 0.687282 0.014259
0.550170 0.733427 0.022932
0.804798 0.774905 0.031493
1.000000 0.780182 0.038267
0.064257 0.867314 0.024529
0.318024 0.912048 0.033424
0.571357 0.958409 0.042540
0.824666 1.000000 0.051794
1.000000 1.000000 0.060905
0.000000 0.000000 0.195491
0.243796 0.000000 0.200556
0.508243 0.000000 0.205760
0.772662 0.000000 0.211103
1.000000 0.000000 0.216584
0.000000 0.230555 0.212026
0.255318 0.238508 0.217719
0.519675 0.243093 0.223368
0.784004 0.247763 0.229156
1.000000 0.252519 0.235083
0.013352 0.454868 0.228111
0.276340 0.464619 0.234330
0.530817 0.506758 0.242402
0.795055 0.511702 0.248635
1.000000 0.516731 0.255006
0.034553 0.680144 0.245626
0.297820 0.688759 0.252216
0.551221 0.734925 0.260932
0.805818 0.776517 0.269539
1.000000 0.781820 0.276356
0.055440 0.906385 0.264572
0.319059 0.913591 0.271517
0.572385 0.959973 0.280675
0.825687 1.000000 0.289971
1.000000 1.000000 0.299131
0.000000 0.000000 0.433012
0.244913 0.000000 0.438120
0.509352 0.000000 0.443367
0.773763 0.000000 0.448752
1.000000 0.000000 0.454277
0.000000 0.235382 0.449867
0.256408 0.239908 0.455420
0.520756 0.244519 0.461112
0.785076 0.249215 0.466942
1.000000 0.253997 0.472911
0.004592 0.493762 0.467892
0.268829 0.498752 0.473900
0.531870 0.508268 0.480282
0.796100 0.513238 0.486558
1.000000 0.518294 0.492972
0.025763 0.719131 0.485545
0.289901 0.724421 0.491999
0.552270 0.736429 0.498944
0.806835 0.778138 0.507599
1.000000 0.783467 0.514458
0.046621 0.945464 0.504627
0.310662 0.951055 0.511528
0.573411 0.961544 0.518823
0.826706 1.000000 0.528161
1.000000 1.000000 0.537371
0.000000 0.000000 0.670547
0.246028 0.000000 0.675697
0.510458 0.000000 0.680987
0.774860 0.000000 0.686415
1.000000 0.000000 0.691982
0.000000 0.236763 0.687539
0.257495 0.241315 0.693134
0.521835 0.245953 0.698868
0.786146 0.250676 0.704741
1.000000 0.255484 0.710754
0.004394 0.500049 0.705956
0.268672 0.504875 0.711996
0.532921 0.509786 0.718176
0.797142 0.514782 0.724494
1.000000 0.519864 0.730951
0.016970 0.758127 0.725476
0.281099 0.763446 0.731973
0.545198 0.768859 0.738610
0.807849 0.779766 0.745672
1.000000 0.785122 0.752574
0.037798 0.984552 0.744696
0.301830 0.990172 0.751640
0.565831 0.995885 0.758723
0.827723 1.000000 0.766365
1.000000 1.000000 0.775623
0.000000 0.000000 0.908095
0.247141 0.000000 0.913288
0.511562 0.000000 0.918620
0.775955 0.000000 0.924091
1.000000 0.000000 0.929700
0.000000 0.238153 0.925223
0.258579 0.242731 0.930861
0.522910 0.247395 0.936638
0.787213 0.252144 0.942554
1.000000 0.256979 0.948609
0.005460 0.501523 0.943777
0.269729 0.506375 0.949860
0.533969 0.511312 0.956082
0.798182 0.516335 0.962443
1.000000 0.521443 0.968943
0.016410 0.765769 0.963757
0.280588 0.770895 0.970285
0.544738 0.776106 0.976952
0.808860 0.781403 0.983758
1.000000 0.786785 0.990703
0.028972 1.000000 0.984778
0.292995 1.000000 0.991764
0.556987 1.000000 0.998890
0.820949 1.000000 1.000000
1.000000 1.000000 1.000000
