luts/overcast-teal.cube
TITLE "Overcast Teal"
LUT_3D_SIZE 33
DOMAIN_MIN 0.0 0.0 0.0
DOMAIN_MAX 1.0 1.0 1.0
0.057544 0.086603 0.099613
0.079077 0.088138 0.101106
0.100611 0.089673 0.102599
0.122781 0.091004 0.104237
0.145924 0.092069 0.105646
0.170017 0.092877 0.106796
0.195059 0.093430 0.107687
0.221052 0.093726 0.108320
0.247994 0.093766 0.108694
0.275886 0.093550 0.108809
0.304728 0.093078 0.108665
0.334520 0.092349 0.108262
0.365262 0.091364 0.107601
0.396954 0.090123 0.106681
0.429595 0.088626 0.105502
0.457259 0.088505 0.105351
0.484480 0.088505 0.105294
0.511702 0.088506 0.105237
0.538923 0.088507 0.105180
0.566144 0.088507 0.105123
0.593365 0.088508 0.105066
0.620586 0.088509 0.105010
0.647808 0.088509 0.104953
0.675029 0.088510 0.104896
0.702250 0.088511 0.104839
0.729471 0.088511 0.104782
0.756692 0.088512 0.104725
0.783913 0.088512 0.104669
0.811135 0.088513 0.104612
0.838356 0.088514 0.104555
0.865577 0.088514 0.104498
0.892798 0.088515 0.104441
0.920019 0.088516 0.104384
0.063366 0.112682 0.104844
0.084900 0.114216 0.106337
0.106434 0.115751 0.107829
0.128112 0.117259 0.109167
0.150643 0.118547 0.110171
0.174122 0.119579 0.110916
0.198549 0.120355 0.111404
0.223923 0.120876 0.111633
0.250246 0.121141 0.111604
0.277516 0.121150 0.111317
0.305734 0.120904 0.110771
0.334900 0.120402 0.109967
0.365014 0.119644 0.108905
0.396076 0.118630 0.107585
0.428086 0.117361 0.106007
0.457866 0.116682 0.105151
0.485087 0.116683 0.105095
0.512308 0.116683 0.105038
0.539530 0.116684 0.104981
0.566751 0.116685 0.104924
0.593972 0.116685 0.104867
0.621193 0.116686 0.104810
0.648414 0.116687 0.104754
0.675636 0.116687 0.104697
0.702857 0.116688 0.104640
0.730078 0.116688 0.104583
0.757299 0.116689 0.104526
0.784520 0.116690 0.104469
0.811741 0.116690 0.104413
0.838963 0.116691 0.104356
0.866184 0.116692 0.104299
0.893405 0.116692 0.104242
0.920626 0.116693 0.104185
0.069189 0.138760 0.110075
0.090723 0.140295 0.111567
0.112256 0.141830 0.113060
0.133790 0.143365 0.114553
0.155485 0.144898 0.115591
0.178049 0.146234 0.116015
0.201562 0.147315 0.116180
0.226022 0.148140 0.116088
0.251429 0.148709 0.115737
0.277785 0.149023 0.115128
0.305089 0.149081 0.114261
0.333340 0.148883 0.113136
0.362540 0.148430 0.111752
0.392687 0.147721 0.110110
0.423782 0.146756 0.108210
0.455825 0.145535 0.106052
0.485694 0.144860 0.104895
0.512915 0.144861 0.104839
0.540137 0.144861 0.104782
0.567358 0.144862 0.104725
0.594579 0.144862 0.104668
0.621800 0.144863 0.104611
0.649021 0.144864 0.104554
0.676242 0.144864 0.104498
0.703464 0.144865 0.104441
0.730685 0.144866 0.104384
0.757906 0.144866 0.104327
0.785127 0.144867 0.104270
0.812348 0.144868 0.104213
0.839569 0.144868 0.104156
0.866791 0.144869 0.104100
0.894012 0.144870 0.104043
0.921233 0.144870 0.103986
0.075012 0.164839 0.115305
0.096546 0.166374 0.116798
0.118079 0.167909 0.118291
0.139613 0.169444 0.119783
0.161147 0.170979 0.121276
0.182858 0.172535 0.122029
0.205455 0.173920 0.121873
0.229000 0.175050 0.121459
0.253494 0.175924 0.120787
0.278935 0.176542 0.119856
0.305324 0.176904 0.118667
0.332660 0.177011 0.117220
0.360945 0.176862 0.115515
0.390178 0.176457 0.113551
0.420358 0.175796 0.111330
0.451486 0.174880 0.108850
0.483562 0.173708 0.106111
0.513522 0.173038 0.104639
0.540743 0.173038 0.104583
0.567965 0.173039 0.104526
0.595186 0.173040 0.104469
0.622407 0.173040 0.104412
0.649628 0.173041 0.104355
0.676849 0.173042 0.104298
0.704070 0.173042 0.104242
0.731292 0.173043 0.104185
0.758513 0.173044 0.104128
0.785734 0.173044 0.104071
0.812955 0.173045 0.104014
0.840176 0.173046 0.103957
0.867397 0.173046 0.103900
0.894619 0.173047 0.103844
0.921840 0.173048 0.103787
0.080835 0.190918 0.120536
0.102368 0.192452 0.122028
0.123902 0.193987 0.123521
0.145436 0.195522 0.125014
0.166969 0.197057 0.126506
0.188503 0.198592 0.127999
0.210229 0.200172 0.128483
0.232860 0.201605 0.127747
0.256438 0.202784 0.126753
0.280965 0.203706 0.125501
0.306439 0.204373 0.123990
0.332861 0.204784 0.122222
0.360231 0.204939 0.120195
0.388549 0.204839 0.117909
0.417815 0.204483 0.115366
0.448028 0.203871 0.112564
0.479190 0.203003 0.109504
0.511299 0.201880 0.106186
0.541350 0.201216 0.104383
0.568571 0.201216 0.104327
0.595793 0.201217 0.104270
0.623014 0.201218 0.104213
0.650235 0.201218 0.104156
0.677456 0.201219 0.104099
0.704677 0.201220 0.104042
0.731898 0.201220 0.103985
0.759120 0.201221 0.103929
0.786341 0.201222 0.103872
0.813562 0.201222 0.103815
0.840783 0.201223 0.103758
0.868004 0.201224 0.103701
0.895225 0.201224 0.103644
0.922447 0.201225 0.103588
0.086658 0.216996 0.125766
0.108191 0.218531 0.127259
0.129725 0.220066 0.128752
0.151259 0.221601 0.130244
0.172792 0.223136 0.131737
0.194326 0.224671 0.133230
0.215860 0.226206 0.134722
0.237600 0.227807 0.134952
0.260263 0.229289 0.133636
0.283875 0.230516 0.132062
0.308435 0.231487 0.130230
0.333942 0.232202 0.128140
0.360398 0.232662 0.125791
0.387801 0.232866 0.123184
0.416152 0.232814 0.120319
0.445451 0.232507 0.117195
0.475697 0.231944 0.113814
0.506892 0.231125 0.110174
0.539035 0.230051 0.106276
0.569178 0.229394 0.104127
0.596399 0.229394 0.104071
0.623621 0.229395 0.104014
0.650842 0.229396 0.103957
0.678063 0.229396 0.103900
0.705284 0.229397 0.103843
0.732505 0.229398 0.103786
0.759726 0.229398 0.103729
0.786948 0.229399 0.103673
0.814169 0.229400 0.103616
0.841390 0.229400 0.103559
0.868611 0.229401 0.103502
0.895832 0.229402 0.103445
0.923054 0.229402 0.103388
0.092480 0.243075 0.130997
0.114014 0.244610 0.132490
0.135548 0.246145 0.133982
0.157081 0.247680 0.135475
0.178615 0.249215 0.136968
0.200149 0.250749 0.138460
0.221682 0.252284 0.139953
0.243216 0.253819 0.141446
0.264969 0.255441 0.141436
0.287666 0.256972 0.139540
0.311311 0.258247 0.137386
0.335904 0.259267 0.134974
0.361445 0.260031 0.132304
0.387933 0.260539 0.129375
0.415369 0.260792 0.126188
0.443754 0.260789 0.122743
0.473086 0.260530 0.119040
0.503366 0.260016 0.115078
0.534594 0.259246 0.110859
0.566769 0.258220 0.106381
0.597006 0.257572 0.103871
0.624227 0.257572 0.103814
0.651449 0.257573 0.103758
0.678670 0.257574 0.103701
0.705891 0.257574 0.103644
0.733112 0.257575 0.103587
0.760333 0.257576 0.103530
0.787554 0.257576 0.103473
0.814776 0.257577 0.103417
0.841997 0.257578 0.103360
0.869218 0.257578 0.103303
0.896439 0.257579 0.103246
0.923660 0.257580 0.103189
0.098303 0.269154 0.136228
0.119837 0.270689 0.137720
0.141371 0.272223 0.139213
0.162904 0.273758 0.140706
0.184438 0.275293 0.142198
0.205972 0.276828 0.143691
0.227505 0.278363 0.145184
0.249039 0.279898 0.146676
0.270573 0.281433 0.148169
0.292337 0.283073 0.147934
0.315068 0.284653 0.145459
0.338746 0.285977 0.142725
0.363372 0.287046 0.139733
0.388946 0.287858 0.136483
0.415467 0.288416 0.132974
0.442937 0.288717 0.129207
0.471354 0.288763 0.125182
0.500720 0.288552 0.120899
0.531033 0.288087 0.116358
0.562294 0.287365 0.111558
0.594503 0.286388 0.106500
0.624834 0.285750 0.103615
0.652055 0.285750 0.103558
0.679277 0.285751 0.103502
0.706498 0.285752 0.103445
0.733719 0.285752 0.103388
0.760940 0.285753 0.103331
0.788161 0.285754 0.103274
0.815383 0.285754 0.103217
0.842604 0.285755 0.103161
0.869825 0.285756 0.103104
0.897046 0.285756 0.103047
0.924267 0.285757 0.102990
0.104126 0.295232 0.141458
0.125660 0.296767 0.142951
0.147193 0.298302 0.144444
0.168727 0.299837 0.145936
0.190261 0.301372 0.147429
0.211794 0.302907 0.148922
0.233328 0.304442 0.150414
0.254862 0.305977 0.151907
0.276395 0.307512 0.153400
0.297929 0.309046 0.154892
0.319705 0.310705 0.154448
0.342468 0.312333 0.151393
0.366180 0.313706 0.148079
0.390839 0.314823 0.144507
0.416446 0.315685 0.140677
0.443001 0.316290 0.136588
0.470504 0.316640 0.132242
0.498954 0.316735 0.127637
0.528353 0.316573 0.122774
0.558699 0.316156 0.117652
0.589993 0.315484 0.112273
0.622235 0.314555 0.106635
0.652662 0.313928 0.103359
0.679883 0.313928 0.103302
0.707105 0.313929 0.103246
0.734326 0.313930 0.103189
0.761547 0.313930 0.103132
0.788768 0.313931 0.103075
0.815989 0.313932 0.103018
0.843211 0.313932 0.102961
0.870432 0.313933 0.102905
0.897653 0.313934 0.102848
0.924874 0.313934 0.102791
0.109949 0.321311 0.146689
0.131483 0.322846 0.148182
0.153016 0.324381 0.149674
0.174550 0.325916 0.151167
0.196084 0.327451 0.152660
0.217617 0.328986 0.154152
0.239151 0.330520 0.155645
0.260685 0.332055 0.157138
0.282218 0.333590 0.158630
0.303752 0.335125 0.160123
0.325285 0.336660 0.161616
0.347071 0.338335 0.160977
0.369868 0.340012 0.157341
0.393613 0.341434 0.153448
0.418305 0.342600 0.149296
0.443945 0.343510 0.144886
0.470533 0.344164 0.140217
0.498069 0.344563 0.135291
0.526553 0.344706 0.130106
0.555985 0.344593 0.124663
0.586364 0.344225 0.118962
0.617692 0.343601 0.113002
0.649967 0.342721 0.106784
0.680490 0.342106 0.103103
0.707712 0.342106 0.103046
0.734933 0.342107 0.102990
0.762154 0.342108 0.102933
0.789375 0.342108 0.102876
0.816596 0.342109 0.102819
0.843817 0.342110 0.102762
0.871039 0.342110 0.102705
0.898260 0.342111 0.102649
0.925481 0.342112 0.102592
0.115772 0.347390 0.151920
0.137305 0.348925 0.153412
0.158839 0.350459 0.154905
0.180373 0.351994 0.156398
0.201906 0.353529 0.157890
0.223440 0.355064 0.159383
0.244974 0.356599 0.160876
0.266507 0.358134 0.162368
0.288041 0.359669 0.163861
0.309575 0.361204 0.165354
0.331108 0.362739 0.166846
0.352642 0.364274 0.168339
0.374437 0.365964 0.167520
0.397267 0.367690 0.163305
0.421044 0.369160 0.158831
0.445770 0.370375 0.154099
0.471443 0.371333 0.149109
0.498065 0.372037 0.143861
0.525634 0.372484 0.138355
0.554151 0.372676 0.132590
0.583616 0.372612 0.126567
0.614029 0.372292 0.120286
0.645389 0.371716 0.113746
0.677698 0.370885 0.106949
0.708318 0.370284 0.102847
0.735540 0.370284 0.102790
0.762761 0.370285 0.102734
0.789982 0.370286 0.102677
0.817203 0.370286 0.102620
0.844424 0.370287 0.102563
0.871645 0.370288 0.102506
0.898867 0.370288 0.102449
0.926088 0.370289 0.102393
0.121595 0.373468 0.157150
0.143128 0.375003 0.158643
0.164662 0.376538 0.160136
0.186196 0.378073 0.161628
0.207729 0.379608 0.163121
0.229263 0.381143 0.164614
0.250797 0.382678 0.166106
0.272330 0.384213 0.167599
0.293864 0.385748 0.169092
0.315397 0.387283 0.170584
0.336931 0.388817 0.172077
0.358465 0.390352 0.173570
0.379998 0.391887 0.175062
0.401801 0.393592 0.174079
0.424664 0.395367 0.169283
0.448475 0.396886 0.164230
0.473234 0.398149 0.158918
0.498941 0.399156 0.153348
0.525595 0.399908 0.147520
0.553197 0.400404 0.141434
0.581748 0.400644 0.135089
0.611246 0.400629 0.128486
0.641692 0.400358 0.121625
0.673086 0.399831 0.114506
0.705427 0.399049 0.107128
0.736146 0.398462 0.102591
0.763368 0.398462 0.102534
0.790589 0.398463 0.102478
0.817810 0.398464 0.102421
0.845031 0.398464 0.102364
0.872252 0.398465 0.102307
0.899473 0.398466 0.102250
0.926695 0.398466 0.102193
0.127417 0.399547 0.162381
0.148951 0.401082 0.163874
0.170485 0.402617 0.165366
0.192018 0.404152 0.166859
0.213552 0.405687 0.168352
0.235086 0.407222 0.169844
0.256619 0.408757 0.171337
0.278153 0.410291 0.172830
0.299687 0.411826 0.174322
0.321220 0.413361 0.175815
0.342754 0.414896 0.177308
0.364288 0.416431 0.178800
0.385821 0.417966 0.180293
0.407355 0.419501 0.181786
0.429164 0.421219 0.180652
0.452061 0.423042 0.175277
0.475905 0.424610 0.169644
0.500697 0.425921 0.163752
0.526437 0.426977 0.157602
0.553124 0.427778 0.151194
0.580760 0.428323 0.144528
0.609343 0.428612 0.137603
0.638875 0.428645 0.130420
0.669354 0.428422 0.122979
0.700781 0.427944 0.115280
0.733156 0.427211 0.107323
0.763974 0.426640 0.102335
0.791196 0.426640 0.102278
0.818417 0.426641 0.102222
0.845638 0.426642 0.102165
0.872859 0.426642 0.102108
0.900080 0.426643 0.102051
0.927301 0.426644 0.101994
0.133240 0.425626 0.167612
0.154774 0.427161 0.169104
0.176308 0.428696 0.170597
0.197841 0.430230 0.172090
0.219375 0.431765 0.173582
0.240909 0.433300 0.175075
0.262442 0.434835 0.176568
0.283976 0.436370 0.178060
0.305509 0.437905 0.179553
0.327043 0.439440 0.181046
0.348577 0.440975 0.182538
0.370110 0.442510 0.184031
0.391644 0.444045 0.185524
0.413178 0.445580 0.187016
0.434711 0.447114 0.188509
0.456527 0.448844 0.187240
0.479456 0.450716 0.181285
0.503334 0.452332 0.175072
0.528159 0.453693 0.168601
0.553932 0.454798 0.161871
0.580653 0.455647 0.154883
0.608322 0.456240 0.147637
0.636938 0.456578 0.140132
0.666503 0.456660 0.132369
0.697015 0.456486 0.124349
0.728475 0.456057 0.116069
0.760883 0.455372 0.107532
0.791802 0.454818 0.102079
0.819024 0.454818 0.102022
0.846245 0.454819 0.101965
0.873466 0.454820 0.101909
0.900687 0.454820 0.101852
0.927908 0.454821 0.101795
0.139063 0.451704 0.172842
0.160597 0.453239 0.174335
0.182130 0.454774 0.175828
0.203664 0.456309 0.177320
0.225198 0.457844 0.178813
0.246731 0.459379 0.180306
0.268265 0.460914 0.181798
0.289799 0.462449 0.183291
0.311332 0.463984 0.184783
0.332866 0.465519 0.186276
0.354400 0.467054 0.187769
0.375933 0.468588 0.189261
0.397467 0.470123 0.190754
0.419001 0.471658 0.192247
0.440534 0.473193 0.193739
0.462068 0.474728 0.195232
0.483888 0.476469 0.193844
0.506851 0.478389 0.187309
0.530761 0.480054 0.180516
0.555620 0.481463 0.173464
0.581426 0.482617 0.166155
0.608180 0.483514 0.158587
0.635882 0.484156 0.150760
0.664532 0.484543 0.142676
0.694130 0.484673 0.134333
0.724675 0.484548 0.125733
0.756169 0.484168 0.116874
0.788610 0.483531 0.107756
0.819630 0.482996 0.101823
0.846852 0.482996 0.101766
0.874073 0.482997 0.101709
0.901294 0.482998 0.101653
0.928515 0.482998 0.101596
0.144886 0.477783 0.178073
0.166420 0.479318 0.179565
0.187953 0.480853 0.181058
0.209487 0.482388 0.182551
0.231020 0.483923 0.184043
0.252554 0.485458 0.185536
0.274088 0.486993 0.187029
0.295621 0.488527 0.188521
0.317155 0.490062 0.190014
0.338689 0.491597 0.191507
0.360222 0.493132 0.192999
0.381756 0.494667 0.194492
0.403290 0.496202 0.195985
0.424823 0.497737 0.197477
0.446357 0.499272 0.198970
0.467891 0.500807 0.200463
0.489424 0.502342 0.201955
0.511249 0.504092 0.200462
0.534244 0.506061 0.193347
0.558188 0.507774 0.185974
0.583080 0.509232 0.178343
0.608919 0.510434 0.170453
0.635707 0.511381 0.162305
0.663442 0.512071 0.153899
0.692125 0.512506 0.145235
0.721756 0.512686 0.136312
0.752334 0.512609 0.127132
0.783861 0.512277 0.117693
0.816336 0.511690 0.107996
0.847458 0.511174 0.101567
0.874680 0.511174 0.101510
0.901901 0.511175 0.101453
0.929122 0.511176 0.101397
0.150709 0.503862 0.183303
0.172242 0.505397 0.184796
0.193776 0.506932 0.186289
0.215310 0.508467 0.187781
0.236843 0.510001 0.189274
0.258377 0.511536 0.190767
0.279911 0.513071 0.192259
0.301444 0.514606 0.193752
0.322978 0.516141 0.195245
0.344512 0.517676 0.196737
0.366045 0.519211 0.198230
0.387579 0.520746 0.199723
0.409113 0.522281 0.201215
0.430646 0.523816 0.202708
0.452180 0.525351 0.204201
0.473714 0.526885 0.205693
0.495247 0.528420 0.207186
0.516781 0.529955 0.208679
0.538608 0.531713 0.207095
0.561637 0.533731 0.199401
0.585614 0.535494 0.191448
0.610539 0.537000 0.183236
0.636411 0.538251 0.174767
0.663232 0.539246 0.166039
0.691000 0.539985 0.157053
0.719716 0.540469 0.147809
0.749381 0.540697 0.138306
0.779993 0.540669 0.128546
0.811552 0.540386 0.118527
0.844060 0.539847 0.108250
0.875286 0.539352 0.101311
0.902508 0.539352 0.101254
0.929729 0.539353 0.101197
0.156532 0.529940 0.188534
0.178065 0.531475 0.190027
0.199599 0.533010 0.191519
0.221132 0.534545 0.193012
0.242666 0.536080 0.194505
0.264200 0.537615 0.195997
0.285733 0.539150 0.197490
0.307267 0.540685 0.198983
0.328801 0.542220 0.200475
0.350334 0.543755 0.201968
0.371868 0.545290 0.203461
0.393402 0.546824 0.204953
0.414935 0.548359 0.206446
0.436469 0.549894 0.207939
0.458003 0.551429 0.209431
0.479536 0.552964 0.210924
0.501070 0.554499 0.212417
0.522604 0.556034 0.213909
0.544137 0.557569 0.215402
0.565966 0.559334 0.213744
0.589028 0.561401 0.205469
0.613039 0.563211 0.196936
0.637997 0.564767 0.188145
0.663902 0.566066 0.179095
0.690756 0.567110 0.169788
0.718558 0.567898 0.160222
0.747307 0.568430 0.150398
0.777005 0.568707 0.140315
0.807650 0.568728 0.129975
0.839243 0.568493 0.119376
0.871784 0.568003 0.108519
0.903115 0.567530 0.101055
0.930336 0.567530 0.100998
0.162354 0.556019 0.193765
0.183888 0.557554 0.195257
0.205422 0.559089 0.196750
0.226955 0.560624 0.198243
0.248489 0.562159 0.199735
0.270023 0.563694 0.201228
0.291556 0.565229 0.202721
0.313090 0.566764 0.204213
0.334624 0.568298 0.205706
0.356157 0.569833 0.207199
0.377691 0.571368 0.208691
0.399225 0.572903 0.210184
0.420758 0.574438 0.211677
0.442292 0.575973 0.213169
0.463826 0.577508 0.214662
0.485359 0.579043 0.216155
0.506893 0.580578 0.217647
0.528426 0.582113 0.219140
0.549960 0.583648 0.220633
0.571494 0.585182 0.222125
0.593324 0.586954 0.220407
0.616419 0.589069 0.211552
0.640462 0.590928 0.202439
0.665454 0.592532 0.193068
0.691393 0.593880 0.183439
0.718280 0.594973 0.173551
0.746114 0.595809 0.163405
0.774897 0.596390 0.153001
0.804627 0.596716 0.142339
0.835306 0.596785 0.131419
0.866932 0.596599 0.120240
0.899506 0.596158 0.108803
0.930943 0.595708 0.100799
0.168177 0.582098 0.198995
0.189711 0.583633 0.200488
0.211244 0.585168 0.201981
0.232778 0.586703 0.203473
0.254312 0.588237 0.204966
0.275845 0.589772 0.206459
0.297379 0.591307 0.207951
0.318913 0.592842 0.209444
0.340446 0.594377 0.210937
0.361980 0.595912 0.212429
0.383514 0.597447 0.213922
0.405047 0.598982 0.215415
0.426581 0.600517 0.216907
0.448115 0.602052 0.218400
0.469648 0.603587 0.219893
0.491182 0.605121 0.221385
0.512716 0.606656 0.222878
0.534249 0.608191 0.224371
0.555783 0.609726 0.225863
0.577317 0.611261 0.227356
0.598850 0.612796 0.228849
0.620680 0.614572 0.227085
0.643808 0.616736 0.217650
0.667885 0.618644 0.207958
0.692909 0.620296 0.198007
0.718882 0.621693 0.187797
0.745802 0.622834 0.177330
0.773670 0.623720 0.166604
0.802486 0.624349 0.155620
0.832249 0.624723 0.144378
0.862961 0.624842 0.132878
0.894620 0.624704 0.121119
0.927228 0.624311 0.109102
0.174000 0.608177 0.204226
0.195534 0.609711 0.205719
0.217067 0.611246 0.207211
0.238601 0.612781 0.208704
0.260135 0.614316 0.210197
0.281668 0.615851 0.211689
0.303202 0.617386 0.213182
0.324736 0.618921 0.214675
0.346269 0.620456 0.216167
0.367803 0.621991 0.217660
0.389337 0.623526 0.219153
0.410870 0.625061 0.220645
0.432404 0.626595 0.222138
0.453937 0.628130 0.223631
0.475471 0.629665 0.225123
0.497005 0.631200 0.226616
0.518538 0.632735 0.228109
0.540072 0.634270 0.229601
0.561606 0.635805 0.231094
0.583139 0.637340 0.232587
0.604673 0.638875 0.234079
0.626207 0.640410 0.235572
0.648035 0.642189 0.233778
0.671197 0.644401 0.223764
0.695307 0.646358 0.213491
0.720364 0.648059 0.202960
0.746370 0.649505 0.192171
0.773323 0.650695 0.181123
0.801224 0.651629 0.169818
0.830073 0.652307 0.158254
0.859870 0.652730 0.146432
0.890615 0.652897 0.134351
0.922308 0.652808 0.122013
0.179823 0.634255 0.209457
0.201356 0.635790 0.210949
0.222890 0.637325 0.212442
0.244424 0.638860 0.213935
0.265957 0.640395 0.215427
0.287491 0.641930 0.216920
0.309025 0.643465 0.218413
0.330558 0.645000 0.219905
0.352092 0.646534 0.221398
0.373626 0.648069 0.222891
0.395159 0.649604 0.224383
0.416693 0.651139 0.225876
0.438227 0.652674 0.227369
0.459760 0.654209 0.228861
0.481294 0.655744 0.230354
0.502828 0.657279 0.231847
0.524361 0.658814 0.233339
0.545895 0.660349 0.234832
0.567429 0.661884 0.236325
0.588962 0.663418 0.237817
0.610496 0.664953 0.239310
0.632030 0.666488 0.240803
0.653563 0.668023 0.242295
0.675389 0.669804 0.240486
0.698584 0.672066 0.229892
0.722727 0.674071 0.219039
0.747818 0.675821 0.207928
0.773857 0.677315 0.196559
0.800843 0.678554 0.184932
0.828778 0.679537 0.173046
0.857660 0.680264 0.160903
0.887490 0.680735 0.148501
0.918268 0.680951 0.135840
0.185646 0.660334 0.214687
0.207179 0.661869 0.216180
0.228713 0.663404 0.217673
0.250247 0.664939 0.219165
0.271780 0.666474 0.220658
0.293314 0.668008 0.222151
0.314848 0.669543 0.223643
0.336381 0.671078 0.225136
0.357915 0.672613 0.226629
0.379449 0.674148 0.228121
0.400982 0.675683 0.229614
0.422516 0.677218 0.231107
0.444049 0.678753 0.232599
0.465583 0.680288 0.234092
0.487117 0.681823 0.235585
0.508650 0.683358 0.237077
0.530184 0.684892 0.238570
0.551718 0.686427 0.240063
0.573251 0.687962 0.241555
0.594785 0.689497 0.243048
0.616319 0.691032 0.244541
0.637852 0.692567 0.246033
0.659386 0.694102 0.247526
0.680920 0.695637 0.249019
0.702743 0.697419 0.247209
0.725971 0.699729 0.236035
0.750147 0.701783 0.224602
0.775271 0.703582 0.212911
0.801343 0.705125 0.200962
0.828363 0.706412 0.188755
0.856330 0.707443 0.176290
0.885246 0.708219 0.163566
0.915109 0.708739 0.150584
0.191468 0.686413 0.219918
0.213002 0.687947 0.221411
0.234536 0.689482 0.222903
0.256069 0.691017 0.224396
0.277603 0.692552 0.225889
0.299137 0.694087 0.227381
0.320670 0.695622 0.228874
0.342204 0.697157 0.230367
0.363738 0.698692 0.231859
0.385271 0.700227 0.233352
0.406805 0.701762 0.234845
0.428339 0.703297 0.236337
0.449872 0.704831 0.237830
0.471406 0.706366 0.239323
0.492940 0.707901 0.240815
0.514473 0.709436 0.242308
0.536007 0.710971 0.243801
0.557541 0.712506 0.245293
0.579074 0.714041 0.246786
0.600608 0.715576 0.248279
0.622142 0.717111 0.249771
0.643675 0.718646 0.251264
0.665209 0.720181 0.252756
0.686743 0.721715 0.254249
0.708276 0.723250 0.255742
0.730095 0.725032 0.253947
0.753356 0.727391 0.242193
0.777566 0.729494 0.230180
0.802723 0.731341 0.217910
0.828828 0.732933 0.205381
0.855881 0.734268 0.192594
0.883882 0.735349 0.179548
0.912830 0.736173 0.166245
0.197291 0.712491 0.225149
0.218825 0.714026 0.226641
0.240359 0.715561 0.228134
0.261892 0.717096 0.229627
0.283426 0.718631 0.231119
0.304960 0.720166 0.232612
0.326493 0.721701 0.234105
0.348027 0.723236 0.235597
0.369561 0.724771 0.237090
0.391094 0.726305 0.238583
0.412628 0.727840 0.240075
0.434161 0.729375 0.241568
0.455695 0.730910 0.243061
0.477229 0.732445 0.244553
0.498762 0.733980 0.246046
0.520296 0.735515 0.247538
0.541830 0.737050 0.249031
0.563363 0.738585 0.250524
0.584897 0.740120 0.252016
0.606431 0.741655 0.253509
0.627964 0.743189 0.255002
0.649498 0.744724 0.256494
0.671032 0.746259 0.257987
0.692565 0.747794 0.259480
0.714099 0.749329 0.260972
0.735633 0.750864 0.262465
0.757446 0.752645 0.260700
0.780741 0.755052 0.248366
0.804983 0.757203 0.235773
0.830174 0.759099 0.222923
0.856312 0.760739 0.209814
0.883398 0.762124 0.196447
0.911432 0.763253 0.182822
0.203114 0.738570 0.230379
0.224648 0.740105 0.231872
0.246181 0.741640 0.233365
0.267715 0.743175 0.234857
0.289249 0.744710 0.236350
0.310782 0.746244 0.237843
0.332316 0.747779 0.239335
0.353850 0.749314 0.240828
0.375383 0.750849 0.242320
0.396917 0.752384 0.243813
0.418451 0.753919 0.245306
0.439984 0.755454 0.246798
0.461518 0.756989 0.248291
0.483052 0.758524 0.249784
0.504585 0.760059 0.251276
0.526119 0.761594 0.252769
0.547653 0.763128 0.254262
0.569186 0.764663 0.255754
0.590720 0.766198 0.257247
0.612254 0.767733 0.258740
0.633787 0.769268 0.260232
0.655321 0.770803 0.261725
0.676854 0.772338 0.263218
0.698388 0.773873 0.264710
0.719922 0.775408 0.266203
0.741455 0.776943 0.267696
0.762989 0.778478 0.269188
0.784796 0.780256 0.267468
0.808124 0.782711 0.254554
0.832400 0.784912 0.241381
0.857624 0.786856 0.227951
0.883795 0.788545 0.214262
0.910914 0.789978 0.200315
0.208937 0.764649 0.235610
0.230471 0.766184 0.237102
0.252004 0.767718 0.238595
0.273538 0.769253 0.240088
0.295072 0.770788 0.241580
0.316605 0.772323 0.243073
0.338139 0.773858 0.244566
0.359673 0.775393 0.246058
0.381206 0.776928 0.247551
0.402740 0.778463 0.249044
0.424273 0.779998 0.250536
0.445807 0.781533 0.252029
0.467341 0.783068 0.253522
0.488874 0.784602 0.255014
0.510408 0.786137 0.256507
0.531942 0.787672 0.258000
0.553475 0.789207 0.259492
0.575009 0.790742 0.260985
0.596543 0.792277 0.262478
0.618076 0.793812 0.263970
0.639610 0.795347 0.265463
0.661144 0.796882 0.266956
0.682677 0.798417 0.268448
0.704211 0.799952 0.269941
0.725745 0.801486 0.271434
0.747278 0.803021 0.272926
0.768812 0.804556 0.274419
