luts/overcast-teal.cube
TITLE "Overcast Teal"
LUT_3D_SIZE 9
DOMAIN_MIN 0.0 0.0 0.0
DOMAIN_MAX 1.0 1.0 1.0
0.057544 0.086603 0.099613
0.145924 0.092069 0.105646
0.247994 0.093766 0.108694
0.365262 0.091364 0.107601
0.484480 0.088505 0.105294
0.593365 0.088508 0.105066
0.702250 0.088511 0.104839
0.811135 0.088513 0.104612
0.920019 0.088516 0.104384
0.080835 0.190918 0.120536
0.166969 0.197057 0.126506
0.256438 0.202784 0.126753
0.360231 0.204939 0.120195
0.479190 0.203003 0.109504
0.595793 0.201217 0.104270
0.704677 0.201220 0.104042
0.813562 0.201222 0.103815
0.922447 0.201225 0.103588
0.104126 0.295232 0.141458
0.190261 0.301372 0.147429
0.276395 0.307512 0.153400
0.366180 0.313706 0.148079
0.470504 0.316640 0.132242
0.589993 0.315484 0.112273
0.707105 0.313929 0.103246
0.815989 0.313932 0.103018
0.924874 0.313934 0.102791
0.127417 0.399547 0.162381
0.213552 0.405687 0.168352
0.299687 0.411826 0.174322
0.385821 0.417966 0.180293
0.475905 0.424610 0.169644
0.580760 0.428323 0.144528
0.700781 0.427944 0.115280
0.818417 0.426641 0.102222
0.927301 0.426644 0.101994
0.150709 0.503862 0.183303
0.236843 0.510001 0.189274
0.322978 0.516141 0.195245
0.409113 0.522281 0.201215
0.495247 0.528420 0.207186
0.585614 0.535494 0.191448
0.691000 0.539985 0.157053
0.811552 0.540386 0.118527
0.929729 0.539353 0.101197
0.174000 0.608177 0.204226
0.260135 0.614316 0.210197
0.346269 0.620456 0.216167
0.432404 0.626595 0.222138
0.518538 0.632735 0.228109
0.604673 0.638875 0.234079
0.695307 0.646358 0.213491
0.801224 0.651629 0.169818
0.922308 0.652808 0.122013
0.197291 0.712491 0.225149
0.283426 0.718631 0.231119
0.369561 0.724771 0.237090
0.455695 0.730910 0.243061
0.541830 0.737050 0.249031
0.627964 0.743189 0.255002
0.714099 0.749329 0.260972
0.804983 0.757203 0.235773
0.911432 0.763253 0.182822
0.220583 0.816806 0.246071
0.306717 0.822946 0.252042
0.392852 0.829085 0.258012
0.478986 0.835225 0.263983
0.565121 0.841365 0.269954
0.651256 0.847504 0.275924
0.737390 0.853644 0.281895
0.823525 0.859783 0.287866
0.914644 0.868029 0.258295
0.243874 0.921121 0.266994
0.330008 0.927260 0.272964
0.416143 0.933400 0.278935
0.502278 0.939540 0.284906
0.588412 0.945679 0.290876
0.674547 0.951819 0.296847
0.760682 0.957959 0.302818
0.846816 0.964098 0.308788
0.932951 0.970238 0.314759
0.060012 0.088883 0.188771
0.146147 0.095023 0.194742
0.236844 0.099497 0.203775
0.345156 0.098550 0.214639
0.468666 0.093504 0.221362
0.593622 0.088509 0.223317
0.702507 0.088511 0.223090
0.811392 0.088514 0.222862
0.920277 0.088517 0.222635
0.083304 0.193198 0.209694
0.169438 0.199338 0.215664
0.257528 0.204874 0.221857
0.359095 0.206671 0.225404
0.475861 0.204368 0.224811
0.596050 0.201218 0.222520
0.704935 0.201221 0.222293
0.813819 0.201223 0.222066
0.922704 0.201226 0.221838
0.106595 0.297513 0.230616
0.192730 0.303652 0.236587
0.278864 0.309792 0.242557
0.368210 0.315521 0.243141
0.471815 0.317690 0.236996
0.590586 0.315769 0.226719
0.707362 0.313930 0.221496
0.816247 0.313933 0.221269
0.925131 0.313935 0.221041
0.129886 0.401828 0.251539
0.216021 0.407967 0.257509
0.302155 0.414107 0.263480
0.388290 0.420246 0.269451
0.477947 0.426436 0.264559
0.582082 0.429384 0.249135
0.701384 0.428241 0.229580
0.818674 0.426642 0.220472
0.927559 0.426645 0.220245
0.153178 0.506142 0.272461
0.239312 0.512282 0.278432
0.325447 0.518422 0.284403
0.411581 0.524561 0.290373
0.497716 0.530701 0.296344
0.587667 0.537331 0.286217
0.692334 0.541058 0.261514
0.812166 0.540695 0.232680
0.929986 0.539354 0.219448
0.176469 0.610457 0.293384
0.262603 0.616597 0.299354
0.348738 0.622736 0.305325
0.434873 0.628876 0.311296
0.521007 0.635016 0.317266
0.607142 0.641155 0.323237
0.697370 0.648207 0.308113
0.802569 0.652713 0.274132
0.922933 0.653128 0.236020
0.199760 0.714772 0.314306
0.285895 0.720911 0.320277
0.372029 0.727051 0.326248
0.458164 0.733191 0.332218
0.544299 0.739330 0.338189
0.630433 0.745470 0.344160
0.716568 0.751610 0.350130
0.807058 0.759064 0.330249
0.912787 0.764349 0.286990
0.223051 0.819087 0.335229
0.309186 0.825226 0.341200
0.395321 0.831366 0.347170
0.481455 0.837505 0.353141
0.567590 0.843645 0.359111
0.653724 0.849785 0.365082
0.739859 0.855924 0.371053
0.825994 0.862064 0.377023
0.916729 0.869902 0.352624
0.246343 0.923401 0.356151
0.332477 0.929541 0.362122
0.418612 0.935681 0.368093
0.504747 0.941820 0.374063
0.590881 0.947960 0.380034
0.677016 0.954099 0.386005
0.763150 0.960239 0.391975
0.849285 0.966379 0.397946
0.935420 0.972518 0.403917
0.062481 0.091164 0.277929
0.148616 0.097304 0.283899
0.234750 0.103443 0.289870
0.326648 0.107383 0.300660
0.441202 0.103792 0.319339
0.570953 0.096101 0.333877
0.702764 0.088512 0.341340
0.811649 0.088515 0.341113
0.920534 0.088518 0.340885
0.085773 0.195479 0.298851
0.171907 0.201618 0.304822
0.258042 0.207758 0.310793
0.348101 0.212449 0.319557
0.455910 0.211601 0.330921
0.578918 0.206654 0.338143
0.705192 0.201222 0.340543
0.814077 0.201224 0.340316
0.922961 0.201227 0.340089
0.109064 0.299793 0.319774
0.195198 0.305933 0.325745
0.281333 0.312073 0.331715
0.369143 0.317680 0.338026
0.470208 0.319576 0.342074
0.586470 0.317372 0.341981
0.707619 0.313931 0.339747
0.816504 0.313934 0.339519
0.925389 0.313936 0.339292
0.132355 0.404108 0.340696
0.218490 0.410248 0.346667
0.304624 0.416387 0.352638
0.390759 0.422527 0.358608
0.479985 0.428258 0.359520
0.583401 0.430442 0.353789
0.701984 0.428535 0.343925
0.818931 0.426643 0.338723
0.927816 0.426646 0.338495
0.155646 0.508423 0.361619
0.241781 0.514562 0.367590
0.327916 0.520702 0.373560
0.414050 0.526842 0.379531
0.500185 0.532981 0.385502
0.589716 0.539165 0.381031
0.693664 0.542128 0.366021
0.812777 0.540999 0.346879
0.930243 0.539355 0.337699
0.178938 0.612738 0.382542
0.265072 0.618877 0.388512
0.351207 0.625017 0.394483
0.437342 0.631156 0.400453
0.523476 0.637296 0.406424
0.609611 0.643436 0.412395
0.699431 0.650053 0.402781
0.803910 0.653795 0.378493
0.923554 0.653445 0.350072
0.202229 0.717052 0.403464
0.288364 0.723192 0.409435
0.374498 0.729332 0.415405
0.460633 0.735471 0.421376
0.546767 0.741611 0.427347
0.632902 0.747750 0.433317
0.719037 0.753890 0.439288
0.809129 0.760922 0.424771
0.914139 0.765442 0.391203
0.225520 0.821367 0.424387
0.311655 0.827507 0.430357
0.397789 0.833646 0.436328
0.483924 0.839786 0.442299
0.570059 0.845926 0.448269
0.656193 0.852065 0.454240
0.742328 0.858205 0.460211
0.828463 0.864345 0.466181
0.918812 0.871771 0.446999
0.248812 0.925682 0.445309
0.334946 0.931821 0.451280
0.421081 0.937961 0.457250
0.507215 0.944101 0.463221
0.593350 0.950240 0.469192
0.679485 0.956380 0.475162
0.765619 0.962520 0.481133
0.851754 0.968659 0.487104
0.937888 0.974799 0.493074
0.064950 0.093444 0.367087
0.151085 0.099584 0.373057
0.237219 0.105724 0.379028
0.323354 0.111863 0.384998
0.415335 0.115727 0.396299
0.536130 0.109492 0.422794
0.672123 0.099156 0.445148
0.811906 0.088516 0.459363
0.920791 0.088519 0.459136
0.088241 0.197759 0.388009
0.174376 0.203899 0.393980
0.260511 0.210038 0.399950
0.346645 0.216178 0.405921
0.437558 0.220481 0.416013
0.551609 0.216989 0.435192
0.680858 0.209397 0.450231
0.814334 0.201225 0.458567
0.923219 0.201228 0.458339
0.111533 0.302074 0.408932
0.197667 0.308214 0.414902
0.283802 0.314353 0.420873
0.369936 0.320493 0.426844
0.459369 0.325401 0.435299
0.566676 0.324652 0.447162
0.689181 0.319804 0.454885
0.816761 0.313935 0.457770
0.925646 0.313937 0.457543
0.134824 0.406389 0.429854
0.220959 0.412528 0.435825
0.307093 0.418668 0.441795
0.393228 0.424808 0.447766
0.480769 0.430487 0.454155
0.581331 0.432481 0.458703
0.697091 0.430376 0.459110
0.819189 0.426644 0.456973
0.928073 0.426647 0.456746
0.158115 0.510703 0.450777
0.244250 0.516843 0.456747
0.330384 0.522983 0.462718
0.416519 0.529122 0.468689
0.502654 0.535262 0.474659
0.591761 0.540996 0.475892
0.694990 0.543194 0.470573
0.813384 0.541301 0.461124
0.930501 0.539356 0.455949
0.181407 0.615018 0.471699
0.267541 0.621158 0.477670
0.353676 0.627297 0.483641
0.439810 0.633437 0.489611
0.525945 0.639577 0.495582
0.612080 0.645716 0.501553
0.701487 0.651895 0.497495
0.805247 0.654872 0.482898
0.924172 0.653758 0.464170
0.204698 0.719333 0.492622
0.290832 0.725472 0.498592
0.376967 0.731612 0.504563
0.463102 0.737752 0.510534
0.549236 0.743891 0.516504
0.635371 0.750031 0.522475
0.721505 0.756171 0.528446
0.811197 0.762775 0.519338
0.915488 0.766531 0.495463
0.227989 0.823648 0.513544
0.314124 0.829787 0.519515
0.400258 0.835927 0.525486
0.486393 0.842066 0.531456
0.572528 0.848206 0.537427
0.658662 0.854346 0.543398
0.744797 0.860485 0.549368
0.830931 0.866625 0.555339
0.920890 0.873636 0.541420
0.251280 0.927962 0.534467
0.337415 0.934102 0.540438
0.423550 0.940242 0.546408
0.509684 0.946381 0.552379
0.595819 0.952521 0.558350
0.681953 0.958660 0.564320
0.768088 0.964800 0.570291
0.854223 0.970940 0.576261
0.940357 0.977079 0.582232
0.067419 0.095725 0.456244
0.153554 0.101865 0.462215
0.239688 0.108004 0.468186
0.325823 0.114144 0.474156
0.411957 0.120284 0.480127
0.502905 0.124528 0.490694
0.629942 0.115649 0.525004
0.772177 0.102669 0.555175
0.921048 0.088520 0.577387
0.090710 0.200040 0.477167
0.176845 0.206179 0.483137
0.262979 0.212319 0.489108
0.349114 0.218459 0.495079
0.435249 0.224598 0.501049
0.525898 0.228971 0.511224
0.646191 0.222835 0.538219
0.781681 0.212599 0.561073
0.923476 0.201229 0.576590
0.114001 0.304354 0.498089
0.200136 0.310494 0.504060
0.286271 0.316634 0.510031
0.372405 0.322773 0.516001
0.458540 0.328913 0.521972
0.548479 0.333580 0.531326
0.662028 0.330187 0.551005
0.790774 0.322694 0.566544
0.925903 0.313938 0.575793
0.137293 0.408669 0.519012
0.223427 0.414809 0.524983
0.309562 0.420948 0.530953
0.395697 0.427088 0.536924
0.481831 0.433228 0.542895
0.570649 0.438354 0.550999
0.677453 0.437705 0.563362
0.799455 0.432955 0.571585
0.928331 0.426648 0.574996
0.160584 0.512984 0.539934
0.246719 0.519124 0.545905
0.332853 0.525263 0.551876
0.418988 0.531403 0.557846
0.505123 0.537542 0.563817
0.592406 0.543294 0.570243
0.692466 0.545388 0.575291
0.807724 0.543382 0.576198
0.930758 0.539357 0.574200
0.183875 0.617299 0.560857
0.270010 0.623438 0.566828
0.356145 0.629578 0.572798
0.442279 0.635718 0.578769
0.528414 0.641857 0.584740
0.614548 0.647997 0.590710
0.703540 0.653734 0.592254
0.806581 0.655946 0.587350
0.924787 0.654067 0.578314
0.207167 0.721613 0.581780
0.293301 0.727753 0.587750
0.379436 0.733893 0.593721
0.465570 0.740032 0.599692
0.551705 0.746172 0.605662
0.637840 0.752312 0.611633
0.723974 0.758451 0.617603
0.813261 0.764625 0.613951
0.916833 0.767616 0.599768
0.230458 0.825928 0.602702
0.316593 0.832068 0.608673
0.402727 0.838207 0.614643
0.488862 0.844347 0.620614
0.574996 0.850487 0.626585
0.661131 0.856626 0.632555
0.747266 0.862766 0.638526
0.833400 0.868906 0.644497
0.922965 0.875497 0.635886
0.253749 0.930243 0.623625
0.339884 0.936382 0.629595
0.426018 0.942522 0.635566
0.512153 0.948662 0.641537
0.598288 0.954801 0.647507
0.684422 0.960941 0.653478
0.770557 0.967081 0.659449
0.856692 0.973220 0.665419
0.942826 0.979360 0.671390
0.069888 0.098005 0.545402
0.156022 0.104145 0.551373
0.242157 0.110285 0.557343
0.328292 0.116424 0.563314
0.414426 0.122564 0.569285
0.500561 0.128704 0.575255
0.589358 0.133788 0.583844
0.722637 0.122263 0.625970
0.871114 0.106639 0.663956
0.093179 0.202320 0.566325
0.179314 0.208460 0.572295
0.265448 0.214599 0.578266
0.351583 0.220739 0.584237
0.437717 0.226879 0.590207
0.523852 0.233018 0.596178
0.613121 0.237919 0.605191
0.739656 0.229138 0.640001
0.881388 0.216257 0.670671
0.116470 0.306635 0.587247
0.202605 0.312775 0.593218
0.288740 0.318914 0.599188
0.374874 0.325054 0.605159
0.461009 0.331193 0.611130
0.547143 0.337333 0.617100
0.636472 0.342217 0.626109
0.756263 0.336179 0.653603
0.891250 0.326042 0.676958
0.139762 0.410950 0.608170
0.225896 0.417089 0.614140
0.312031 0.423229 0.620111
0.398165 0.429369 0.626082
0.484300 0.435508 0.632052
0.570435 0.441648 0.638023
0.659412 0.446680 0.646598
0.772458 0.443385 0.666777
0.900701 0.435991 0.682816
0.163053 0.515264 0.629092
0.249188 0.521404 0.635063
0.335322 0.527544 0.641034
0.421457 0.533683 0.647004
0.507591 0.539823 0.652975
0.593726 0.545963 0.658945
0.681939 0.551308 0.666659
0.788241 0.550757 0.679522
0.909740 0.546107 0.688245
0.186344 0.619579 0.650015
0.272479 0.625719 0.655985
0.358613 0.631858 0.661956
0.444748 0.637998 0.667927
0.530883 0.644138 0.673897
0.617017 0.650277 0.679868
0.704055 0.656103 0.686291
0.803612 0.658295 0.691838
0.918367 0.656388 0.693245
0.209635 0.723894 0.670937
0.295770 0.730034 0.676908
0.381905 0.736173 0.682879
0.468039 0.742313 0.688849
0.554174 0.748452 0.694820
0.640309 0.754592 0.700791
0.726443 0.760732 0.706761
0.815322 0.766472 0.708609
0.918174 0.768698 0.704118
0.232927 0.828209 0.691860
0.319061 0.834348 0.697831
0.405196 0.840488 0.703801
0.491331 0.846628 0.709772
0.577465 0.852767 0.715742
0.663600 0.858907 0.721713
0.749734 0.865046 0.727684
0.835869 0.871186 0.733654
0.925037 0.877356 0.730398
0.256218 0.932523 0.712782
0.342353 0.938663 0.718753
0.428487 0.944803 0.724724
0.514622 0.950942 0.730694
0.600757 0.957082 0.736665
0.686891 0.963222 0.742636
0.773026 0.969361 0.748606
0.859160 0.975501 0.754577
0.945295 0.981640 0.760548
0.072357 0.100286 0.634560
0.158491 0.106426 0.640530
0.244626 0.112565 0.646501
0.330760 0.118705 0.652472
0.416895 0.124845 0.658442
0.503030 0.130984 0.664413
0.589164 0.137124 0.670384
0.675299 0.143263 0.676354
0.814215 0.129335 0.725690
0.095648 0.204601 0.655482
0.181782 0.210740 0.661453
0.267917 0.216880 0.667424
0.354052 0.223020 0.673394
0.440186 0.229159 0.679365
0.526321 0.235299 0.685336
0.612456 0.241439 0.691306
0.699228 0.247325 0.697912
0.832004 0.235899 0.740538
0.118939 0.308915 0.676405
0.205074 0.315055 0.682376
0.291208 0.321195 0.688346
0.377343 0.327334 0.694317
0.463478 0.333474 0.700287
0.549612 0.339614 0.706258
0.635747 0.345753 0.712229
0.723349 0.351311 0.719647
0.849381 0.342629 0.754957
0.142230 0.413230 0.697327
0.228365 0.419370 0.703298
0.314500 0.425509 0.709269
0.400634 0.431649 0.715239
0.486769 0.437789 0.721210
0.572904 0.443928 0.727181
0.659038 0.450068 0.733151
0.747058 0.455462 0.740952
0.866346 0.449524 0.768947
0.165522 0.517545 0.718250
0.251656 0.523685 0.724221
0.337791 0.529824 0.730191
0.423926 0.535964 0.736162
0.510060 0.542103 0.742133
0.596195 0.548243 0.748103
0.682329 0.554383 0.754074
0.770356 0.559780 0.761830
0.882899 0.556585 0.782509
0.188813 0.621860 0.739173
0.274948 0.627999 0.745143
0.361082 0.634139 0.751114
0.447217 0.640279 0.757084
0.533351 0.646418 0.763055
0.619486 0.652558 0.769026
0.705621 0.658698 0.774996
0.793241 0.664263 0.782278
0.899040 0.663811 0.795641
0.212104 0.726174 0.760095
0.298239 0.732314 0.766066
0.384374 0.738454 0.772036
0.470508 0.744593 0.778007
0.556643 0.750733 0.783978
0.642777 0.756873 0.789948
0.728912 0.763012 0.795919
0.815715 0.768912 0.802298
0.914770 0.771203 0.808345
0.235396 0.830489 0.781018
0.321530 0.836629 0.786988
0.407665 0.842768 0.792959
0.493799 0.848908 0.798930
0.579934 0.855048 0.804900
0.666069 0.861187 0.810871
0.752203 0.867327 0.816842
0.838338 0.873467 0.822812
0.927105 0.879210 0.824956
0.258687 0.934804 0.801940
0.344822 0.940944 0.807911
0.430956 0.947083 0.813881
0.517091 0.953223 0.819852
0.603225 0.959362 0.825823
0.689360 0.965502 0.831793
0.775495 0.971642 0.837764
0.861629 0.977781 0.843735
0.947764 0.983921 0.849705
0.074825 0.102567 0.723718
0.160960 0.108706 0.729688
0.247095 0.114846 0.735659
0.333229 0.120985 0.741630
0.419364 0.127125 0.747600
0.505498 0.133265 0.753571
0.591633 0.139404 0.759541
0.677768 0.145544 0.765512
0.763902 0.151684 0.771483
0.098117 0.206881 0.744640
0.184251 0.213021 0.750611
0.270386 0.219161 0.756581
0.356521 0.225300 0.762552
0.442655 0.231440 0.768523
0.528790 0.237579 0.774493
0.614924 0.243719 0.780464
0.701059 0.249859 0.786435
0.787194 0.255998 0.792405
0.121408 0.311196 0.765563
0.207543 0.317336 0.771533
0.293677 0.323475 0.777504
0.379812 0.329615 0.783475
0.465946 0.335755 0.789445
0.552081 0.341894 0.795416
0.638216 0.348034 0.801387
0.724350 0.354173 0.807357
0.810485 0.360313 0.813328
0.144699 0.415511 0.786485
0.230834 0.421650 0.792456
0.316969 0.427790 0.798426
0.403103 0.433930 0.804397
0.489238 0.440069 0.810368
0.575372 0.446209 0.816338
0.661507 0.452349 0.822309
0.747642 0.458488 0.828280
0.833776 0.464628 0.834250
0.167991 0.519825 0.807408
0.254125 0.525965 0.813378
0.340260 0.532105 0.819349
0.426394 0.538244 0.825320
0.512529 0.544384 0.831290
0.598664 0.550524 0.837261
0.684798 0.556663 0.843232
0.770933 0.562803 0.849202
0.857655 0.568709 0.855755
0.191282 0.624140 0.828330
0.277416 0.630280 0.834301
0.363551 0.636419 0.840272
0.449686 0.642559 0.846242
0.535820 0.648699 0.852213
0.621955 0.654838 0.858184
0.708090 0.660978 0.864154
0.794224 0.667118 0.870125
0.881311 0.672881 0.877020
0.214573 0.728455 0.849253
0.300708 0.734595 0.855223
0.386842 0.740734 0.861194
0.472977 0.746874 0.867165
0.559112 0.753013 0.873135
0.645246 0.759153 0.879106
0.731381 0.765293 0.885077
0.817515 0.771432 0.891047
0.904555 0.777219 0.897856
0.237864 0.832770 0.870175
0.323999 0.838909 0.876146
0.410134 0.845049 0.882117
0.496268 0.851189 0.888087
0.582403 0.857328 0.894058
0.668538 0.863468 0.900029
0.754672 0.869608 0.905999
0.840807 0.875747 0.911970
0.927387 0.881722 0.918264
0.261156 0.937084 0.891098
0.347290 0.943224 0.897069
0.433425 0.949364 0.903039
0.519560 0.955503 0.909010
0.605694 0.961643 0.914981
0.691829 0.967783 0.920951
0.777963 0.973922 0.926922
0.864098 0.980062 0.932892
0.950233 0.986202 0.938863
0.077294 0.104847 0.812875
0.163429 0.110987 0.818846
0.249563 0.117126 0.824817
0.335698 0.123266 0.830787
0.421833 0.129406 0.836758
0.507967 0.135545 0.842729
0.594102 0.141685 0.848699
0.680237 0.147825 0.854670
0.766371 0.153964 0.860641
0.100586 0.209162 0.833798
0.186720 0.215301 0.839769
0.272855 0.221441 0.845739
0.358989 0.227581 0.851710
0.445124 0.233720 0.857680
0.531259 0.239860 0.863651
0.617393 0.246000 0.869622
0.703528 0.252139 0.875592
0.789662 0.258279 0.881563
0.123877 0.313477 0.854720
0.210011 0.319616 0.860691
0.296146 0.325756 0.866662
0.382281 0.331895 0.872632
0.468415 0.338035 0.878603
0.554550 0.344175 0.884574
0.640685 0.350314 0.890544
0.726819 0.356454 0.896515
0.812954 0.362594 0.902486
0.147168 0.417791 0.875643
0.233303 0.423931 0.881614
0.319437 0.430071 0.887584
0.405572 0.436210 0.893555
0.491707 0.442350 0.899526
0.577841 0.448489 0.905496
0.663976 0.454629 0.911467
0.750110 0.460769 0.917438
0.836245 0.466908 0.923408
0.170459 0.522106 0.896566
0.256594 0.528246 0.902536
0.342729 0.534385 0.908507
0.428863 0.540525 0.914477
0.514998 0.546665 0.920448
0.601132 0.552804 0.926419
0.687267 0.558944 0.932389
0.773402 0.565083 0.938360
0.859536 0.571223 0.944331
0.193751 0.626421 0.917488
0.279885 0.632560 0.923459
0.366020 0.638700 0.929429
0.452155 0.644840 0.935400
0.538289 0.650979 0.941371
0.624424 0.657119 0.947341
0.710558 0.663259 0.953312
0.796693 0.669398 0.959283
0.882828 0.675538 0.965253
0.217042 0.730735 0.938411
0.303177 0.736875 0.944381
0.389311 0.743015 0.950352
0.475446 0.749154 0.956323
0.561580 0.755294 0.962293
0.647715 0.761434 0.968264
0.733850 0.767573 0.974234
0.819984 0.773713 0.980205
0.906119 0.779853 0.986176
0.240333 0.835050 0.959333
0.326468 0.841190 0.965304
0.412603 0.847329 0.971274
0.498737 0.853469 0.977245
0.584872 0.859609 0.983216
0.671006 0.865748 0.989186
0.757141 0.871888 0.995157
0.843276 0.878028 1.000000
0.929410 0.884167 1.000000
0.263625 0.939365 0.980256
0.349759 0.945505 0.986226
0.435894 0.951644 0.992197
0.522028 0.957784 0.998168
0.608163 0.963923 1.000000
0.694298 0.970063 1.000000
0.780432 0.976203 1.000000
0.866567 0.982342 1.000000
0.952701 0.988482 1.000000
