luts/overcast-teal.cube
TITLE "Overcast Teal"
LUT_3D_SIZE 5
DOMAIN_MIN 0.0 0.0 0.0
DOMAIN_MAX 1.0 1.0 1.0
0.057544 0.086603 0.099613
0.247994 0.093766 0.108694
0.484480 0.088505 0.105294
0.702250 0.088511 0.104839
0.920019 0.088516 0.104384
0.104126 0.295232 0.141458
0.276395 0.307512 0.153400
0.470504 0.316640 0.132242
0.707105 0.313929 0.103246
0.924874 0.313934 0.102791
0.150709 0.503862 0.183303
0.322978 0.516141 0.195245
0.495247 0.528420 0.207186
0.691000 0.539985 0.157053
0.929729 0.539353 0.101197
0.197291 0.712491 0.225149
0.369561 0.724771 0.237090
0.541830 0.737050 0.249031
0.714099 0.749329 0.260972
0.911432 0.763253 0.182822
0.243874 0.921121 0.266994
0.416143 0.933400 0.278935
0.588412 0.945679 0.290876
0.760682 0.957959 0.302818
0.932951 0.970238 0.314759
0.062481 0.091164 0.277929
0.234750 0.103443 0.289870
0.441202 0.103792 0.319339
0.702764 0.088512 0.341340
0.920534 0.088518 0.340885
0.109064 0.299793 0.319774
0.281333 0.312073 0.331715
0.470208 0.319576 0.342074
0.707619 0.313931 0.339747
0.925389 0.313936 0.339292
0.155646 0.508423 0.361619
0.327916 0.520702 0.373560
0.500185 0.532981 0.385502
0.693664 0.542128 0.366021
0.930243 0.539355 0.337699
0.202229 0.717052 0.403464
0.374498 0.729332 0.415405
0.546767 0.741611 0.427347
0.719037 0.753890 0.439288
0.914139 0.765442 0.391203
0.248812 0.925682 0.445309
0.421081 0.937961 0.457250
0.593350 0.950240 0.469192
0.765619 0.962520 0.481133
0.937888 0.974799 0.493074
0.067419 0.095725 0.456244
0.239688 0.108004 0.468186
0.411957 0.120284 0.480127
0.629942 0.115649 0.525004
0.921048 0.088520 0.577387
0.114001 0.304354 0.498089
0.286271 0.316634 0.510031
0.458540 0.328913 0.521972
0.662028 0.330187 0.551005
0.925903 0.313938 0.575793
0.160584 0.512984 0.539934
0.332853 0.525263 0.551876
0.505123 0.537542 0.563817
0.692466 0.545388 0.575291
0.930758 0.539357 0.574200
0.207167 0.721613 0.581780
0.379436 0.733893 0.593721
0.551705 0.746172 0.605662
0.723974 0.758451 0.617603
0.916833 0.767616 0.599768
0.253749 0.930243 0.623625
0.426018 0.942522 0.635566
0.598288 0.954801 0.647507
0.770557 0.967081 0.659449
0.942826 0.979360 0.671390
0.072357 0.100286 0.634560
0.244626 0.112565 0.646501
0.416895 0.124845 0.658442
0.589164 0.137124 0.670384
0.814215 0.129335 0.725690
0.118939 0.308915 0.676405
0.291208 0.321195 0.688346
0.463478 0.333474 0.700287
0.635747 0.345753 0.712229
0.849381 0.342629 0.754957
0.165522 0.517545 0.718250
0.337791 0.529824 0.730191
0.510060 0.542103 0.742133
0.682329 0.554383 0.754074
0.882899 0.556585 0.782509
0.212104 0.726174 0.760095
0.384374 0.738454 0.772036
0.556643 0.750733 0.783978
0.728912 0.763012 0.795919
0.914770 0.771203 0.808345
0.258687 0.934804 0.801940
0.430956 0.947083 0.813881
0.603225 0.959362 0.825823
0.775495 0.971642 0.837764
0.947764 0.983921 0.849705
0.077294 0.104847 0.812875
0.249563 0.117126 0.824817
0.421833 0.129406 0.836758
0.594102 0.141685 0.848699
0.766371 0.153964 0.860641
0.123877 0.313477 0.854720
0.296146 0.325756 0.866662
0.468415 0.338035 0.878603
0.640685 0.350314 0.890544
0.812954 0.362594 0.902486
0.170459 0.522106 0.896566
0.342729 0.534385 0.908507
0.514998 0.546665 0.920448
0.687267 0.558944 0.932389
0.859536 0.571223 0.944331
0.217042 0.730735 0.938411
0.389311 0.743015 0.950352
0.561580 0.755294 0.962293
0.733850 0.767573 0.974234
0.906119 0.779853 0.986176
0.263625 0.939365 0.980256
0.435894 0.951644 0.992197
0.608163 0.963923 1.000000
0.780432 0.976203 1.000000
0.952701 0.988482 1.000000
